; generated by PrusaSlicer 2.3.3+x64 on 2021-12-04 at 19:30:44 UTC

; 

; external perimeters extrusion width = 0.45mm
; perimeters extrusion width = 0.45mm
; infill extrusion width = 0.45mm
; solid infill extrusion width = 0.45mm
; top infill extrusion width = 0.40mm
; support material extrusion width = 0.35mm
; first layer extrusion width = 0.42mm

M73 P0 R55
M73 Q0 S55
M201 X1000 Y1000 Z200 E5000 ; sets maximum accelerations, mm/sec^2
M203 X200 Y200 Z12 E120 ; sets maximum feedrates, mm/sec
M204 P1250 R1250 T1250 ; sets acceleration (P, T) and retract acceleration (R), mm/sec^2
M205 X8.00 Y8.00 Z0.40 E4.50 ; sets the jerk limits, mm/sec
M205 S0 T0 ; sets the minimum extruding and travel feed rate, mm/sec
M107
;TYPE:Custom
M862.3 P "MK3S" ; printer model check
M862.1 P0.4 ; nozzle diameter check
M115 U3.10.0 ; tell printer latest fw version
G90 ; use absolute coordinates
M83 ; extruder relative mode
M104 S230 ; set extruder temp
M140 S85 ; set bed temp
M190 S85 ; wait for bed temp
M109 S230 ; wait for extruder temp
G28 W ; home all without mesh bed level
G80 ; mesh bed leveling
G1 Y-3.0 F1000.0 ; go outside print area
G92 E0.0
G1 X60.0 E9.0 F1000.0 ; intro line
G1 X100.0 E12.5 F1000.0 ; intro line
G92 E0.0
M221 S95

; Don't change E values below. Excessive value can damage the printer.
M907 E430 ; set extruder motor current
G21 ; set units to millimeters
G90 ; use absolute coordinates
M83 ; use relative distances for extrusion
M900 K0.08 ; Filament gcode LA 1.5
M900 K45 ; Filament gcode LA 1.0
;LAYER_CHANGE
;Z:0.2
;HEIGHT:0.2
;BEFORE_LAYER_CHANGE
G92 E0.0
;0.2


G1 E-1.00000 F2100.000
G1 Z0.200 F10800.000
;AFTER_LAYER_CHANGE
;0.2
G1 Z0.400
G1 X108.670 Y88.801
G1 Z0.200
G1 E1.00000 F2100.000
M204 S1000
;TYPE:Skirt
;WIDTH:0.42
G1 F1200.000
G1 X109.549 Y88.602 E0.02825
G1 X134.746 Y88.431 E0.79005
G1 X141.269 Y88.653 E0.20467
G1 X141.840 Y88.852 E0.01894
G1 X142.341 Y89.189 E0.01894
G1 X142.741 Y89.641 E0.01894
G1 X143.015 Y90.180 E0.01894
G1 X143.132 Y90.660 E0.01550
G1 X145.668 Y109.882 E0.60790
M73 P0 R54
G1 X145.632 Y113.960 E0.12787
G1 X145.282 Y114.863 E0.03038
G1 X144.531 Y115.872 E0.03941
G1 X143.943 Y116.378 E0.02435
G1 X136.168 Y121.870 E0.29844
G1 X135.684 Y122.124 E0.01716
G1 X135.150 Y122.261 E0.01728
G1 X103.861 Y122.282 E0.98103
G1 X102.991 Y122.097 E0.02790
G1 X102.247 Y121.602 E0.02802
G1 X101.747 Y120.889 E0.02731
G1 X101.538 Y120.039 E0.02743
G1 X101.535 Y109.087 E0.34341
G1 X102.990 Y97.348 E0.37089
G1 X103.192 Y96.723 E0.02060
G1 X105.567 Y92.052 E0.16429
G1 X107.928 Y89.313 E0.11338
G1 X108.620 Y88.835 E0.02637
; printing object MOHX-1-2002-21-B - LEFT BUMPER.STL id:1 copy 0
;WIPE_START
G1 F8640.000
G1 X109.549 Y88.602 E-0.22098
G1 X112.706 Y88.581 E-0.72902
;WIPE_END
G1 E-0.05000 F2100.000
G1 Z0.400 F10800.000
G1 X128.044 Y104.354
G1 Z0.200
G1 E1.00000 F2100.000
;TYPE:Support material
G1 F1200.000
G1 X128.044 Y111.782 E0.23290
G1 X128.798 Y111.782 E0.02365
G1 X128.798 Y104.524 E0.22758
G1 X129.552 Y104.524 E0.02365
G1 X129.552 Y108.969 E0.13938
G1 X129.836 Y108.730 E0.01164
G1 X130.306 Y108.813 E0.01496
G1 X130.306 Y104.524 E0.13449
G1 X131.061 Y104.524 E0.02365
G1 X131.061 Y108.953 E0.13887
G1 X131.815 Y109.100 E0.02409
G1 X131.815 Y104.524 E0.14350
G1 X132.569 Y104.524 E0.02365
G1 X132.569 Y109.438 E0.15408
;WIPE_START
G1 F8640.000
G1 X132.569 Y105.323 E-0.95000
;WIPE_END
G1 E-0.05000 F2100.000
G1 Z0.400 F10800.000
G1 X134.831 Y109.186
G1 Z0.200
G1 E1.00000 F2100.000
G1 F1200.000
G1 X134.831 Y109.985 E0.02503
;WIPE_START
G1 F8640.000
G1 X134.831 Y109.186 E-0.18436
;WIPE_END
G1 E-0.81564 F2100.000
G1 Z0.400 F10800.000
G1 X131.061 Y114.269
G1 Z0.200
G1 E1.00000 F2100.000
G1 F1200.000
G1 X131.061 Y113.789 E0.01507
G1 X131.815 Y113.455 E0.02585
G1 X131.815 Y114.269 E0.02553
;WIPE_START
G1 F8640.000
G1 X131.815 Y113.455 E-0.18800
G1 X131.061 Y113.789 E-0.19040
G1 X131.061 Y114.269 E-0.11101
;WIPE_END
G1 E-0.51060 F2100.000
G1 Z0.400 F10800.000
G1 X131.759 Y116.908
G1 Z0.200
G1 E1.00000 F2100.000
;TYPE:Support material interface
;WIDTH:0.35
G1 F1200.000
G1 X131.759 Y114.447 E0.06283
G1 X131.241 Y114.447 E0.01322
G1 X131.241 Y116.765 E0.05918
G1 X130.723 Y116.765 E0.01322
G1 X130.723 Y114.447 E0.05918
G1 X130.365 Y114.447 E0.00915
G1 X130.205 Y114.521 E0.00449
G1 X130.205 Y116.765 E0.05729
G1 X129.688 Y116.765 E0.01322
G1 X129.688 Y114.761 E0.05117
G1 X129.564 Y114.818 E0.00347
G1 X129.211 Y114.591 E0.01071
G1 X129.210 Y112.129 E0.06286
G1 X129.170 Y112.129 E0.00102
G1 X129.170 Y116.765 E0.11837
G1 X128.652 Y116.765 E0.01322
G1 X128.652 Y112.129 E0.11837
G1 X128.134 Y112.129 E0.01322
G1 X128.134 Y116.765 E0.11837
G1 X127.616 Y116.765 E0.01322
G1 X127.616 Y111.986 E0.12202
;WIPE_START
G1 F8640.000
G1 X127.616 Y116.101 E-0.95000
;WIPE_END
G1 E-0.05000 F2100.000
G1 Z0.400 F10800.000
G1 X134.831 Y119.905
G1 Z0.200
G1 E1.00000 F2100.000
;TYPE:Support material
;WIDTH:0.42
G1 F1200.000
G1 X134.831 Y112.809 E0.22251
G1 X134.795 Y112.806 E0.00113
G1 X134.077 Y112.820 E0.02252
G1 X134.077 Y119.735 E0.21684
G1 X133.323 Y119.735 E0.02365
G1 X133.323 Y112.940 E0.21306
G1 X132.569 Y113.164 E0.02466
G1 X132.569 Y119.735 E0.20605
G1 X131.815 Y119.735 E0.02365
G1 X131.815 Y117.113 E0.08224
G1 X131.061 Y117.113 E0.02365
G1 X131.061 Y119.735 E0.08224
G1 X130.306 Y119.735 E0.02365
G1 X130.306 Y117.113 E0.08224
G1 X129.552 Y117.113 E0.02365
G1 X129.552 Y119.735 E0.08224
G1 X128.798 Y119.735 E0.02365
G1 X128.798 Y117.113 E0.08223
G1 X128.044 Y117.113 E0.02365
G1 X128.044 Y119.735 E0.08223
G1 X127.290 Y119.735 E0.02365
G1 X127.290 Y117.113 E0.08223
G1 X126.998 Y117.113 E0.00916
G1 X126.997 Y111.782 E0.16714
G1 X127.290 Y111.782 E0.00916
G1 X127.290 Y104.524 E0.22758
G1 X126.536 Y104.524 E0.02365
G1 X126.536 Y119.735 E0.47696
G1 X125.781 Y119.735 E0.02365
G1 X125.781 Y104.524 E0.47696
G1 X125.027 Y104.524 E0.02365
G1 X125.027 Y119.735 E0.47696
M73 Q0 S54
G1 X124.273 Y119.735 E0.02365
G1 X124.273 Y104.524 E0.47696
G1 X123.519 Y104.524 E0.02365
G1 X123.519 Y119.735 E0.47696
G1 X122.765 Y119.735 E0.02365
G1 X122.765 Y104.524 E0.47696
G1 X122.011 Y104.524 E0.02365
G1 X122.011 Y119.735 E0.47696
G1 X121.256 Y119.735 E0.02365
G1 X121.256 Y104.524 E0.47696
G1 X120.502 Y104.524 E0.02365
G1 X120.502 Y119.735 E0.47696
G1 X119.748 Y119.735 E0.02365
G1 X119.748 Y104.524 E0.47696
G1 X118.994 Y104.524 E0.02365
G1 X118.994 Y119.735 E0.47696
M73 P1 R54
M73 Q1 S54
G1 X118.240 Y119.735 E0.02365
G1 X118.240 Y104.524 E0.47696
G1 X117.486 Y104.524 E0.02365
G1 X117.486 Y119.735 E0.47696
G1 X116.731 Y119.735 E0.02365
G1 X116.732 Y104.524 E0.47696
G1 X115.977 Y104.524 E0.02365
G1 X115.977 Y119.735 E0.47696
G1 X115.223 Y119.735 E0.02365
G1 X115.223 Y104.524 E0.47696
G1 X114.469 Y104.524 E0.02365
G1 X114.469 Y119.735 E0.47696
G1 X113.715 Y119.735 E0.02365
G1 X113.715 Y104.524 E0.47696
G1 X112.961 Y104.524 E0.02365
G1 X112.961 Y119.735 E0.47696
G1 X112.207 Y119.735 E0.02365
G1 X112.207 Y106.841 E0.40428
G1 X111.452 Y106.841 E0.02365
G1 X111.452 Y119.735 E0.40428
G1 X110.698 Y119.735 E0.02365
G1 X110.698 Y106.841 E0.40428
G1 X110.468 Y106.841 E0.00722
G1 X110.468 Y109.159 E0.07267
G1 X109.944 Y109.159 E0.01642
G1 X109.944 Y119.735 E0.33161
G1 X109.190 Y119.735 E0.02365
G1 X109.190 Y109.159 E0.33161
G1 X108.436 Y109.159 E0.02365
G1 X108.436 Y119.735 E0.33161
G1 X107.682 Y119.735 E0.02365
G1 X107.682 Y109.159 E0.33161
G1 X106.927 Y109.159 E0.02365
G1 X106.927 Y119.735 E0.33161
G1 X106.173 Y119.735 E0.02365
G1 X106.173 Y109.159 E0.33161
G1 X105.419 Y109.159 E0.02365
G1 X105.419 Y119.735 E0.33161
G1 X104.665 Y119.735 E0.02365
G1 X104.665 Y109.159 E0.33161
G1 X103.911 Y109.159 E0.02365
G1 X103.911 Y119.905 E0.33693
;WIPE_START
G1 F8640.000
G1 X103.911 Y115.791 E-0.95000
;WIPE_END
G1 E-0.05000 F2100.000
G1 Z0.400 F10800.000
G1 X130.703 Y112.641
G1 Z0.200
G1 E1.00000 F2100.000
;TYPE:Perimeter
G1 F1200.000
G1 X130.730 Y112.409 E0.00731
G1 X130.739 Y110.118 E0.07184
G1 X132.054 Y110.377 E0.04202
G1 X134.043 Y110.860 E0.06415
G1 X135.179 Y111.105 E0.03645
G1 X135.915 Y111.208 E0.02329
G1 X136.453 Y111.247 E0.01693
G1 X136.998 Y111.255 E0.01707
G1 X137.559 Y111.231 E0.01760
G1 X138.150 Y111.175 E0.01864
G1 X139.167 Y111.013 E0.03227
G1 X139.916 Y110.854 E0.02402
G1 X140.867 Y110.615 E0.03073
G1 X142.122 Y110.244 E0.04105
G1 X142.122 Y113.299 E0.09579
G1 X138.436 Y112.301 E0.11973
G1 X137.258 Y112.000 E0.03812
G1 X136.192 Y111.770 E0.03421
G1 X135.680 Y111.686 E0.01627
G1 X134.853 Y111.606 E0.02605
G1 X134.405 Y111.600 E0.01403
G1 X133.586 Y111.667 E0.02579
G1 X132.879 Y111.811 E0.02261
G1 X132.425 Y111.942 E0.01483
G1 X131.922 Y112.118 E0.01669
G1 X131.311 Y112.364 E0.02066
G1 X130.758 Y112.616 E0.01906
G1 X130.190 Y113.289 F10800.000
;TYPE:External perimeter
G1 F1200.000
G1 X130.294 Y112.908 E0.01241
G1 X130.353 Y112.387 E0.01642
G1 X130.364 Y109.661 E0.08548
G1 X132.135 Y110.008 E0.05659
G1 X134.127 Y110.492 E0.06426
G1 X135.245 Y110.733 E0.03586
G1 X135.954 Y110.832 E0.02246
G1 X136.470 Y110.870 E0.01620
G1 X136.993 Y110.878 E0.01639
G1 X137.533 Y110.855 E0.01695
G1 X138.103 Y110.801 E0.01796
G1 X139.098 Y110.643 E0.03160
G1 X139.831 Y110.487 E0.02349
G1 X140.767 Y110.251 E0.03027
G1 X142.335 Y109.788 E0.05127
G1 X142.392 Y109.786 E0.00179
G1 X142.451 Y109.836 E0.00242
G1 X142.476 Y109.887 E0.00177
G1 X142.499 Y110.044 E0.00500
G1 X142.499 Y113.792 E0.11749
G1 X138.340 Y112.666 E0.13509
G1 X137.172 Y112.368 E0.03782
G1 X136.121 Y112.140 E0.03369
G1 X135.631 Y112.060 E0.01558
G1 X134.832 Y111.983 E0.02517
G1 X134.418 Y111.977 E0.01299
G1 X133.639 Y112.041 E0.02451
G1 X132.969 Y112.177 E0.02142
G1 X132.539 Y112.302 E0.01403
G1 X132.055 Y112.471 E0.01609
G1 X131.460 Y112.710 E0.02011
G1 X130.245 Y113.264 E0.04188
G1 X130.401 Y112.955 F10800.000
;WIPE_START
G1 F8640.000
G1 X130.294 Y112.908 E-0.08320
G1 X130.353 Y112.387 E-0.12091
G1 X130.364 Y109.661 E-0.62947
G1 X130.859 Y109.758 E-0.11642
;WIPE_END
G1 E-0.05000 F2100.000
G1 Z0.400 F10800.000
G1 X130.846 Y111.678
G1 Z0.200
G1 E1.00000 F2100.000
;TYPE:Solid infill
;WIDTH:0.432584
G1 F1200.000
G1 X131.251 Y112.083 E0.01856
G1 X131.644 Y111.925 E0.01372
G1 X131.017 Y111.298 E0.02872
G1 X131.019 Y110.750 E0.01778
G1 X132.045 Y111.775 E0.04700
G1 X132.459 Y111.638 E0.01412
G1 X131.347 Y110.526 E0.05096
G1 X132.035 Y110.663 E0.02274
G1 X132.891 Y111.520 E0.03925
G1 X133.349 Y111.426 E0.01514
G1 X132.763 Y110.840 E0.02687
G1 X133.491 Y111.017 E0.02428
G1 X133.994 Y111.520 E0.02305
G1 X134.238 Y111.423 F10800.000
;TYPE:Gap fill
;WIDTH:0.274729
G1 F1200.000
G1 X134.389 Y111.271 E0.00413
G1 X134.864 Y111.325 E0.00923
;WIDTH:0.176218
G1 X135.890 Y111.462 E0.01146
;WIDTH:0.208421
G1 X136.244 Y111.504 E0.00492
;WIDTH:0.236661
G1 X136.444 Y111.532 E0.00324
;WIDTH:0.270284
G1 X136.661 Y111.557 E0.00414
;WIDTH:0.303909
G1 X136.879 Y111.582 E0.00476
;WIDTH:0.337534
G1 X137.097 Y111.607 E0.00537
G1 X137.495 Y111.347 F10800.000
;TYPE:Solid infill
;WIDTH:0.453075
G1 F1200.000
G1 X138.061 Y111.913 E0.02730
G1 X138.846 Y112.119 E0.02770
G1 X138.183 Y111.456 E0.03200
G1 X138.684 Y111.376 E0.01729
G1 X139.642 Y112.334 E0.04621
G1 X140.437 Y112.550 E0.02810
G1 X139.184 Y111.297 E0.06042
G1 X139.664 Y111.197 E0.01672
G1 X141.233 Y112.765 E0.07565
G1 X141.839 Y112.929 E0.02143
G1 X141.839 Y112.792 E0.00469
G1 X140.137 Y111.090 E0.08208
G1 X140.601 Y110.973 E0.01630
G1 X141.839 Y112.212 E0.05972
G1 X141.839 Y111.632 E0.01978
G1 X141.060 Y110.853 E0.03757
G1 X141.508 Y110.720 E0.01592
G1 X142.009 Y111.221 E0.02416
; stop printing object MOHX-1-2002-21-B - LEFT BUMPER.STL id:1 copy 0
; printing object MOHX-1-2001-21-B - LEFT TRIGGER.STL id:0 copy 0
;WIPE_START
G1 F8640.000
G1 X141.508 Y110.720 E-0.16357
G1 X141.060 Y110.853 E-0.10779
G1 X141.839 Y111.632 E-0.25434
G1 X141.839 Y112.212 E-0.13393
G1 X140.950 Y111.322 E-0.29037
;WIPE_END
G1 E-0.05000 F2100.000
G1 Z0.400 F10800.000
G1 X140.776 Y104.042
G1 Z0.200
G1 E1.00000 F2100.000
;TYPE:Support material
;WIDTH:0.42
G1 F1200.000
G1 X140.776 Y90.978 E0.40960
G1 X140.022 Y90.978 E0.02365
G1 X140.022 Y103.872 E0.40428
G1 X139.267 Y103.872 E0.02365
G1 X139.267 Y90.978 E0.40428
G1 X138.513 Y90.978 E0.02365
G1 X138.513 Y103.872 E0.40428
G1 X137.759 Y103.872 E0.02365
G1 X137.759 Y101.249 E0.08224
G1 X137.005 Y101.249 E0.02365
G1 X137.005 Y103.872 E0.08224
G1 X136.251 Y103.872 E0.02365
G1 X136.251 Y101.080 E0.08756
G1 X136.094 Y100.453 F10800.000
;TYPE:Support material interface
;WIDTH:0.35
G1 F1200.000
G1 X136.094 Y100.902 E0.01145
G1 X136.612 Y100.902 E0.01322
G1 X136.612 Y100.465 E0.01116
G1 X136.755 Y100.387 E0.00415
G1 X136.929 Y100.254 E0.00560
G1 X137.038 Y100.161 E0.00366
G1 X137.130 Y100.040 E0.00387
G1 X137.130 Y101.045 E0.02566
G1 X137.647 Y101.045 F10800.000
G1 F1200.000
G1 X137.647 Y93.948 E0.18120
G1 X137.130 Y93.948 E0.01322
G1 X137.130 Y95.669 E0.04395
G1 X137.044 Y95.549 E0.00378
G1 X136.822 Y95.360 E0.00744
G1 X136.612 Y95.236 E0.00624
G1 X136.612 Y93.948 E0.03288
G1 X136.094 Y93.948 E0.01322
G1 X136.094 Y95.246 E0.03313
;WIPE_START
G1 F8640.000
G1 X136.094 Y93.948 E-0.29957
G1 X136.612 Y93.948 E-0.11956
G1 X136.612 Y95.236 E-0.29730
G1 X136.822 Y95.360 E-0.05640
G1 X137.044 Y95.549 E-0.06724
G1 X137.130 Y95.669 E-0.03418
G1 X137.130 Y95.341 E-0.07575
;WIPE_END
G1 E-0.05000 F2100.000
G1 Z0.400 F10800.000
G1 X137.759 Y93.771
G1 Z0.200
G1 E1.00000 F2100.000
;TYPE:Support material
;WIDTH:0.42
G1 F1200.000
G1 X137.759 Y90.978 E0.08755
G1 X137.005 Y90.978 E0.02365
G1 X137.005 Y93.601 E0.08224
G1 X136.251 Y93.601 E0.02365
G1 X136.251 Y90.978 E0.08224
G1 X135.497 Y90.978 E0.02365
G1 X135.497 Y95.466 E0.14072
G1 X135.634 Y95.446 E0.00436
G1 X136.023 Y95.451 E0.01219
G1 X136.251 Y95.519 E0.00745
G1 X136.251 Y95.474 E0.00140
G1 X136.443 Y95.540 E0.00636
G1 X136.609 Y95.636 E0.00602
G1 X136.798 Y95.796 E0.00777
G1 X136.983 Y96.091 E0.01090
G1 X137.005 Y96.222 E0.00416
G1 X137.005 Y99.508 E0.10305
G1 X136.980 Y99.624 E0.00370
G1 X136.798 Y99.908 E0.01059
G1 X136.573 Y100.091 E0.00907
G1 X136.439 Y100.162 E0.00476
G1 X136.251 Y100.221 E0.00619
G1 X136.251 Y100.169 E0.00164
G1 X136.091 Y100.225 E0.00530
G1 X135.967 Y100.245 E0.00394
G1 X135.497 Y100.216 E0.01477
G1 X135.497 Y103.872 E0.11463
G1 X134.743 Y103.872 E0.02365
G1 X134.743 Y100.014 E0.12096
G1 X133.988 Y99.786 E0.02470
G1 X133.988 Y103.872 E0.12811
G1 X133.234 Y103.872 E0.02365
G1 X133.234 Y101.249 E0.08224
G1 X132.480 Y101.249 E0.02365
G1 X132.480 Y103.872 E0.08224
G1 X131.726 Y103.872 E0.02365
G1 X131.726 Y101.249 E0.08223
G1 X130.972 Y101.249 E0.02365
G1 X130.972 Y103.872 E0.08223
G1 X130.218 Y103.872 E0.02365
G1 X130.218 Y90.978 E0.40428
G1 X130.972 Y90.978 E0.02365
G1 X130.972 Y93.601 E0.08224
G1 X131.726 Y93.601 E0.02365
G1 X131.726 Y90.978 E0.08224
G1 X132.480 Y90.978 E0.02365
G1 X132.480 Y93.601 E0.08223
G1 X133.234 Y93.601 E0.02365
G1 X133.234 Y90.978 E0.08223
G1 X133.988 Y90.978 E0.02365
G1 X133.988 Y95.753 E0.14970
G1 X134.743 Y95.610 E0.02406
G1 X134.743 Y90.808 E0.15055
;WIPE_START
G1 F8640.000
G1 X134.743 Y94.923 E-0.95000
;WIPE_END
G1 E-0.05000 F2100.000
G1 Z0.400 F10800.000
G1 X133.234 Y96.372
G1 Z0.200
G1 E1.00000 F2100.000
G1 F1200.000
G1 X133.234 Y95.853 E0.01627
G1 X132.987 Y96.011 F10800.000
;TYPE:Support material interface
;WIDTH:0.35
G1 F1200.000
G1 X132.987 Y93.948 E0.05267
G1 X132.469 Y93.948 E0.01322
G1 X132.469 Y100.902 E0.17755
G1 X131.951 Y100.902 E0.01322
G1 X131.951 Y93.948 E0.17755
G1 X131.434 Y93.948 E0.01322
G1 X131.434 Y101.045 E0.18120
;WIPE_START
G1 F8640.000
G1 X131.434 Y96.931 E-0.95000
;WIPE_END
G1 E-0.05000 F2100.000
G1 Z0.400 F10800.000
G1 X132.987 Y101.045
G1 Z0.200
G1 E1.00000 F2100.000
G1 F1200.000
G1 X132.987 Y99.463 E0.04039
;WIPE_START
G1 F8640.000
G1 X132.987 Y101.045 E-0.36521
;WIPE_END
G1 E-0.63479 F2100.000
G1 Z0.400 F10800.000
G1 X129.463 Y104.042
G1 Z0.200
G1 E1.00000 F2100.000
;TYPE:Support material
;WIDTH:0.42
G1 F1200.000
G1 X129.463 Y90.978 E0.40960
M73 P2 R54
M73 Q2 S54
G1 X128.709 Y90.978 E0.02365
G1 X128.709 Y103.872 E0.40428
G1 X127.955 Y103.872 E0.02365
G1 X127.955 Y90.978 E0.40428
G1 X127.201 Y90.978 E0.02365
G1 X127.201 Y103.872 E0.40428
