; generated by PrusaSlicer 2.3.3+x64 on 2021-12-04 at 19:29:18 UTC

; 

; external perimeters extrusion width = 0.45mm
; perimeters extrusion width = 0.45mm
; infill extrusion width = 0.45mm
; solid infill extrusion width = 0.45mm
; top infill extrusion width = 0.40mm
; support material extrusion width = 0.35mm
; first layer extrusion width = 0.42mm

M73 P0 R116
M73 Q0 S117
M201 X1000 Y1000 Z200 E5000 ; sets maximum accelerations, mm/sec^2
M203 X200 Y200 Z12 E120 ; sets maximum feedrates, mm/sec
M204 P1250 R1250 T1250 ; sets acceleration (P, T) and retract acceleration (R), mm/sec^2
M205 X8.00 Y8.00 Z0.40 E4.50 ; sets the jerk limits, mm/sec
M205 S0 T0 ; sets the minimum extruding and travel feed rate, mm/sec
M107
;TYPE:Custom
M862.3 P "MK3S" ; printer model check
M862.1 P0.4 ; nozzle diameter check
M115 U3.10.0 ; tell printer latest fw version
G90 ; use absolute coordinates
M83 ; extruder relative mode
M104 S230 ; set extruder temp
M140 S85 ; set bed temp
M190 S85 ; wait for bed temp
M109 S230 ; wait for extruder temp
G28 W ; home all without mesh bed level
G80 ; mesh bed leveling
G1 Y-3.0 F1000.0 ; go outside print area
G92 E0.0
G1 X60.0 E9.0 F1000.0 ; intro line
G1 X100.0 E12.5 F1000.0 ; intro line
G92 E0.0
M221 S95

; Don't change E values below. Excessive value can damage the printer.
M907 E430 ; set extruder motor current
G21 ; set units to millimeters
G90 ; use absolute coordinates
M83 ; use relative distances for extrusion
M900 K0.08 ; Filament gcode LA 1.5
M900 K45 ; Filament gcode LA 1.0
;LAYER_CHANGE
;Z:0.2
;HEIGHT:0.2
;BEFORE_LAYER_CHANGE
G92 E0.0
;0.2


G1 E-1.00000 F2100.000
G1 Z0.200 F10800.000
;AFTER_LAYER_CHANGE
;0.2
G1 Z0.400
G1 X81.675 Y92.060
G1 Z0.200
G1 E1.00000 F2100.000
M204 S1000
;TYPE:Skirt
;WIDTH:0.42
G1 F1200.000
G1 X82.213 Y91.208 E0.03159
G1 X83.157 Y90.288 E0.04133
G1 X109.047 Y71.468 E1.00357
G1 X109.570 Y71.182 E0.01870
G1 X110.410 Y71.017 E0.02684
G1 X135.562 Y70.847 E0.78864
G1 X141.819 Y71.027 E0.19626
G1 X142.507 Y71.199 E0.02225
G1 X143.117 Y71.570 E0.02237
G1 X161.685 Y92.661 E0.88106
G1 X168.404 Y104.079 E0.41538
G1 X168.737 Y104.953 E0.02933
G1 X168.827 Y105.699 E0.02357
G1 X168.826 Y117.771 E0.37852
G1 X168.737 Y118.582 E0.02557
G1 X168.379 Y119.643 E0.03512
G1 X168.011 Y120.259 E0.02249
G1 X167.590 Y120.763 E0.02058
G1 X166.600 Y121.523 E0.03914
G1 X136.035 Y139.539 E1.11244
G1 X135.527 Y139.763 E0.01740
G1 X134.840 Y139.867 E0.02178
G1 X103.903 Y139.867 E0.97001
M73 P0 R115
G1 X103.386 Y139.808 E0.01633
G1 X102.890 Y139.636 E0.01645
G1 X102.327 Y139.262 E0.02119
G1 X82.241 Y121.178 E0.84744
G1 X81.816 Y120.697 E0.02011
G1 X81.488 Y120.137 E0.02037
G1 X81.245 Y119.400 E0.02431
G1 X81.173 Y118.743 E0.02073
G1 X81.173 Y94.199 E0.76956
M73 Q0 S116
G1 X81.272 Y93.254 E0.02980
G1 X81.656 Y92.117 E0.03762
; printing object MOHX-1-2003-21-C - BASE PLATE, TRIBUMP.STL id:2 copy 0
;WIPE_START
G1 F8640.000
G1 X82.213 Y91.208 E-0.24612
G1 X83.157 Y90.288 E-0.30435
G1 X84.556 Y89.271 E-0.39953
;WIPE_END
G1 E-0.05000 F2100.000
G1 Z0.400 F10800.000
G1 X101.600 Y102.870
G1 Z0.200
G1 E1.00000 F2100.000
;TYPE:Support material
G1 F1200.000
G1 X101.600 Y97.939 E0.15463
;WIPE_START
G1 F8640.000
G1 X101.600 Y102.053 E-0.95000
;WIPE_END
G1 E-0.05000 F2100.000
G1 Z0.400 F10800.000
G1 X99.786 Y99.532
G1 Z0.200
G1 E1.00000 F2100.000
;TYPE:External perimeter
G1 F1200.000
G1 X99.811 Y107.524 E0.25060
G1 X98.240 Y107.524 E0.04925
G1 X98.242 Y99.502 E0.25154
G1 X99.726 Y99.531 E0.04653
G1 X100.144 Y99.354 F10800.000
;WIPE_START
G1 F8640.000
G1 X99.769 Y103.645 E-0.95000
;WIPE_END
G1 E-0.05000 F2100.000
G1 Z0.400 F10800.000
G1 X92.663 Y95.627
G1 Z0.200
G1 E1.00000 F2100.000
;TYPE:Perimeter
G1 F1200.000
G1 X94.739 Y95.627 E0.06510
G1 X94.727 Y99.156 E0.11065
G1 X96.635 Y99.123 E0.05983
G1 X96.637 Y107.901 E0.27525
G1 X94.311 Y107.901 E0.07293
G1 X94.324 Y103.867 E0.12650
G1 X92.667 Y103.967 E0.05205
G1 X92.663 Y95.687 E0.25962
;WIPE_START
G1 F8640.000
G1 X94.739 Y95.627 E-0.47964
G1 X94.732 Y97.664 E-0.47036
;WIPE_END
G1 E-0.05000 F2100.000
G1 Z0.400 F10800.000
G1 X94.714 Y99.534
G1 Z0.200
G1 E1.00000 F2100.000
;TYPE:External perimeter
G1 F1200.000
G1 X96.258 Y99.504 E0.04842
G1 X96.260 Y107.524 E0.25148
G1 X94.689 Y107.524 E0.04925
G1 X94.714 Y99.594 E0.24866
G1 X94.684 Y99.135 F10800.000
;WIPE_START
G1 F8640.000
G1 X96.258 Y99.504 E-0.35718
G1 X96.259 Y102.071 E-0.59282
;WIPE_END
G1 E-0.05000 F2100.000
G1 Z0.400 F10800.000
G1 X93.040 Y96.004
G1 Z0.200
G1 E1.00000 F2100.000
G1 F1200.000
G1 X94.361 Y96.004 E0.04141
G1 X94.336 Y103.488 E0.23466
G1 X93.043 Y103.567 E0.04059
G1 X93.040 Y96.064 E0.23524
G1 X93.017 Y95.605 F10800.000
;WIPE_START
G1 F8640.000
G1 X94.361 Y96.004 E-0.30528
G1 X94.351 Y98.796 E-0.64472
;WIPE_END
G1 E-0.05000 F2100.000
G1 Z0.400 F10800.000
G1 X97.866 Y99.117
G1 Z0.200
G1 E1.00000 F2100.000
;TYPE:Perimeter
G1 F1200.000
G1 X97.863 Y107.901 E0.27541
G1 X100.189 Y107.901 E0.07293
G1 X100.176 Y103.874 E0.12628
G1 X100.764 Y103.886 E0.01842
G1 X100.763 Y109.692 E0.18205
G1 X100.704 Y110.746 E0.03308
G1 X100.531 Y111.764 E0.03239
G1 X100.245 Y112.757 E0.03239
G1 X99.849 Y113.711 E0.03239
G1 X99.350 Y114.615 E0.03239
G1 X98.752 Y115.458 E0.03239
G1 X98.064 Y116.228 E0.03239
G1 X97.293 Y116.916 E0.03239
G1 X96.451 Y117.514 E0.03239
G1 X95.547 Y118.014 E0.03239
G1 X94.592 Y118.409 E0.03239
G1 X93.600 Y118.695 E0.03239
G1 X92.581 Y118.868 E0.03239
G1 X91.528 Y118.927 E0.03308
G1 X84.581 Y118.927 E0.21782
G1 X84.457 Y118.897 E0.00400
G1 X84.367 Y118.807 E0.00397
G1 X84.337 Y118.683 E0.00400
G1 X84.337 Y94.244 E0.76629
G1 X84.360 Y93.947 E0.00933
G1 X84.423 Y93.686 E0.00842
G1 X84.526 Y93.438 E0.00842
G1 X84.666 Y93.209 E0.00842
G1 X84.841 Y93.005 E0.00842
G1 X85.045 Y92.831 E0.00841
G1 X85.273 Y92.690 E0.00842
G1 X85.521 Y92.588 E0.00842
G1 X85.782 Y92.525 E0.00842
G1 X86.081 Y92.501 E0.00939
G1 X99.519 Y92.501 E0.42134
G1 X99.739 Y92.519 E0.00693
G1 X99.924 Y92.563 E0.00596
G1 X100.100 Y92.636 E0.00596
G1 X100.262 Y92.735 E0.00596
G1 X100.406 Y92.858 E0.00596
G1 X100.529 Y93.003 E0.00596
G1 X100.629 Y93.165 E0.00596
G1 X100.701 Y93.340 E0.00596
G1 X100.746 Y93.525 E0.00596
G1 X100.763 Y93.745 E0.00693
G1 X100.763 Y95.631 E0.05914
G1 X100.746 Y95.744 E0.00355
G1 X100.704 Y95.826 E0.00289
G1 X100.434 Y96.015 E0.01035
G1 X100.238 Y96.197 E0.00838
G1 X100.072 Y96.406 E0.00838
G1 X99.938 Y96.638 E0.00839
G1 X99.840 Y96.887 E0.00839
G1 X99.781 Y97.148 E0.00838
G1 X99.763 Y97.386 E0.00750
G1 X99.770 Y99.154 E0.05545
G1 X97.926 Y99.119 E0.05783
;WIPE_START
G1 F8640.000
G1 X97.896 Y103.233 E-0.95000
;WIPE_END
G1 E-0.05000 F2100.000
G1 Z0.400 F10800.000
G1 X100.164 Y103.497
G1 Z0.200
G1 E1.00000 F2100.000
;TYPE:External perimeter
G1 F1200.000
G1 X101.141 Y103.516 E0.03062
G1 X101.140 Y109.703 E0.19397
G1 X101.079 Y110.788 E0.03408
G1 X100.899 Y111.848 E0.03372
G1 X100.601 Y112.882 E0.03372
G1 X100.190 Y113.875 E0.03372
G1 X99.670 Y114.816 E0.03372
G1 X99.047 Y115.693 E0.03372
G1 X98.331 Y116.495 E0.03372
G1 X97.529 Y117.212 E0.03372
G1 X96.652 Y117.834 E0.03372
G1 X95.711 Y118.354 E0.03372
G1 X94.717 Y118.766 E0.03372
G1 X93.684 Y119.063 E0.03372
G1 X92.624 Y119.243 E0.03372
G1 X91.538 Y119.304 E0.03408
G1 X84.566 Y119.304 E0.21861
G1 X84.466 Y119.296 E0.00314
G1 X84.284 Y119.237 E0.00602
G1 X84.135 Y119.129 E0.00576
G1 X84.027 Y118.981 E0.00576
G1 X83.968 Y118.798 E0.00602
G1 X83.960 Y118.698 E0.00314
G1 X83.960 Y94.229 E0.76722
G1 X83.987 Y93.888 E0.01072
G1 X84.063 Y93.569 E0.01028
G1 X84.189 Y93.266 E0.01029
G1 X84.360 Y92.986 E0.01028
G1 X84.573 Y92.737 E0.01028
G1 X84.822 Y92.525 E0.01027
G1 X85.102 Y92.353 E0.01028
G1 X85.405 Y92.228 E0.01028
G1 X85.723 Y92.151 E0.01028
G1 X86.066 Y92.124 E0.01078
G1 X99.534 Y92.124 E0.42227
G1 X99.799 Y92.145 E0.00832
G1 X100.041 Y92.203 E0.00782
G1 X100.271 Y92.299 E0.00782
G1 X100.484 Y92.429 E0.00782
G1 X100.673 Y92.591 E0.00782
G1 X100.835 Y92.781 E0.00782
G1 X100.966 Y92.993 E0.00782
G1 X101.061 Y93.223 E0.00782
G1 X101.119 Y93.466 E0.00782
G1 X101.140 Y93.730 E0.00832
G1 X101.140 Y95.659 E0.06048
G1 X101.111 Y95.856 E0.00622
G1 X101.032 Y96.020 E0.00573
G1 X100.917 Y96.143 E0.00526
G1 X100.670 Y96.311 E0.00937
G1 X100.516 Y96.455 E0.00661
G1 X100.384 Y96.619 E0.00661
G1 X100.279 Y96.802 E0.00661
G1 X100.202 Y96.998 E0.00661
G1 X100.155 Y97.204 E0.00661
G1 X100.140 Y97.399 E0.00614
G1 X100.164 Y103.437 E0.18929
G1 X100.159 Y103.897 F10800.000
G1 X100.470 Y104.069
;TYPE:Gap fill
;WIDTH:0.25211
G1 F1200.000
G1 X100.476 Y108.090 E0.06995
G1 X100.650 Y109.015 F10800.000
;TYPE:Solid infill
;WIDTH:0.421136
G1 F1200.000
G1 X99.819 Y108.184 E0.03695
G1 X99.284 Y108.184 E0.01682
G1 X100.480 Y109.380 E0.05319
G1 X100.468 Y109.903 E0.01644
G1 X98.749 Y108.184 E0.07643
G1 X98.214 Y108.184 E0.01682
G1 X100.600 Y110.570 E0.10611
;WIPE_START
G1 F8640.000
G1 X98.214 Y108.184 E-0.77910
G1 X98.749 Y108.184 E-0.12350
G1 X98.894 Y108.329 E-0.04739
;WIPE_END
G1 E-0.05000 F2100.000
G1 Z0.400 F10800.000
G1 X99.438 Y114.222
G1 Z0.200
G1 E1.00000 F2100.000
G1 F1200.000
G1 X84.620 Y99.404 E0.65904
G1 X84.620 Y99.938 E0.01682
G1 X99.123 Y114.441 E0.64502
G1 X98.903 Y114.756 E0.01208
G1 X84.620 Y100.473 E0.63524
G1 X84.620 Y101.008 E0.01682
G1 X98.681 Y115.069 E0.62537
G1 X98.449 Y115.372 E0.01200
G1 X84.620 Y101.543 E0.61506
G1 X84.620 Y102.078 E0.01682
G1 X98.197 Y115.655 E0.60383
G1 X97.944 Y115.937 E0.01191
G1 X84.620 Y102.613 E0.59260
G1 X84.620 Y103.148 E0.01682
G1 X97.671 Y116.199 E0.58047
G1 X97.389 Y116.452 E0.01191
G1 X84.620 Y103.683 E0.56791
G1 X84.620 Y104.217 E0.01682
G1 X97.105 Y116.703 E0.55530
G1 X96.793 Y116.925 E0.01206
G1 X84.620 Y104.752 E0.54138
G1 X84.620 Y105.287 E0.01682
G1 X96.480 Y117.147 E0.52747
G1 X96.153 Y117.355 E0.01218
G1 X84.620 Y105.822 E0.51295
G1 X84.620 Y106.357 E0.01682
G1 X95.809 Y117.546 E0.49763
G1 X95.464 Y117.736 E0.01238
G1 X84.620 Y106.892 E0.48231
G1 X84.620 Y107.427 E0.01682
G1 X95.090 Y117.897 E0.46566
G1 X94.712 Y118.054 E0.01287
G1 X84.620 Y107.962 E0.44884
G1 X84.620 Y108.496 E0.01682
G1 X94.317 Y118.194 E0.43130
G1 X93.902 Y118.314 E0.01359
G1 X84.620 Y109.031 E0.41283
G1 X84.620 Y109.566 E0.01682
G1 X93.482 Y118.428 E0.39414
G1 X93.025 Y118.506 E0.01458
G1 X84.620 Y110.101 E0.37381
G1 X84.620 Y110.636 E0.01682
G1 X92.567 Y118.584 E0.35347
G1 X92.063 Y118.614 E0.01590
G1 X84.620 Y111.171 E0.33103
G1 X84.620 Y111.706 E0.01682
G1 X91.557 Y118.642 E0.30851
G1 X91.024 Y118.644 E0.01676
G1 X84.620 Y112.241 E0.28481
G1 X84.620 Y112.776 E0.01682
G1 X90.489 Y118.644 E0.26102
G1 X89.954 Y118.644 E0.01682
G1 X84.620 Y113.310 E0.23723
G1 X84.620 Y113.845 E0.01682
G1 X89.419 Y118.644 E0.21345
G1 X88.884 Y118.644 E0.01682
G1 X84.620 Y114.380 E0.18966
G1 X84.620 Y114.915 E0.01682
G1 X88.349 Y118.644 E0.16587
G1 X87.814 Y118.644 E0.01682
G1 X84.620 Y115.450 E0.14208
G1 X84.620 Y115.985 E0.01682
G1 X87.280 Y118.644 E0.11829
G1 X86.745 Y118.644 E0.01682
G1 X84.620 Y116.520 E0.09450
G1 X84.620 Y117.055 E0.01682
G1 X86.210 Y118.644 E0.07071
G1 X85.675 Y118.644 E0.01682
G1 X84.620 Y117.589 E0.04692
G1 X84.620 Y118.124 E0.01682
G1 X85.310 Y118.814 E0.03068
;WIPE_START
G1 F8640.000
G1 X84.620 Y118.124 E-0.22527
G1 X84.620 Y117.589 E-0.12350
G1 X85.675 Y118.644 E-0.34452
G1 X86.210 Y118.644 E-0.12350
G1 X85.802 Y118.237 E-0.13320
;WIPE_END
G1 E-0.05000 F2100.000
G1 Z0.400 F10800.000
G1 X84.450 Y96.559
G1 Z0.200
G1 E1.00000 F2100.000
G1 F1200.000
G1 X94.034 Y106.143 E0.42623
G1 X94.032 Y106.676 E0.01677
G1 X84.620 Y97.264 E0.41861
G1 X84.620 Y97.799 E0.01682
G1 X94.030 Y107.209 E0.41854
G1 X94.029 Y107.743 E0.01677
G1 X84.620 Y98.334 E0.41846
G1 X84.620 Y98.869 E0.01682
G1 X99.504 Y113.752 E0.66196
G1 X99.676 Y113.390 E0.01262
G1 X94.470 Y108.184 E0.23154
G1 X95.005 Y108.184 E0.01682
G1 X99.833 Y113.012 E0.21472
G1 X99.987 Y112.631 E0.01292
G1 X95.540 Y108.184 E0.19777
G1 X96.075 Y108.184 E0.01682
G1 X100.106 Y112.216 E0.17930
G1 X100.226 Y111.800 E0.01359
G1 X96.610 Y108.184 E0.16083
G1 X96.920 Y108.184 E0.00976
G1 X96.920 Y107.960 E0.00707
G1 X100.314 Y111.353 E0.15093
G1 X100.391 Y110.896 E0.01458
G1 X96.920 Y107.425 E0.15439
G1 X96.920 Y106.890 E0.01683
G1 X97.580 Y107.550 E0.02937
G1 X97.580 Y107.015 E0.01682
G1 X96.920 Y106.355 E0.02939
G1 X96.920 Y105.820 E0.01683
G1 X97.581 Y106.481 E0.02940
G1 X97.581 Y105.946 E0.01682
G1 X96.919 Y105.285 E0.02942
G1 X96.919 Y104.750 E0.01683
G1 X97.581 Y105.411 E0.02943
G1 X97.581 Y104.877 E0.01682
G1 X96.919 Y104.215 E0.02944
G1 X96.919 Y103.680 E0.01683
G1 X97.581 Y104.342 E0.02946
G1 X97.582 Y103.807 E0.01682
G1 X96.919 Y103.145 E0.02947
G1 X96.919 Y102.610 E0.01683
G1 X97.582 Y103.272 E0.02948
G1 X97.582 Y102.738 E0.01682
G1 X96.919 Y102.075 E0.02950
G1 X96.919 Y101.540 E0.01683
G1 X97.582 Y102.203 E0.02951
G1 X97.582 Y101.668 E0.01682
G1 X96.918 Y101.005 E0.02952
G1 X96.918 Y100.470 E0.01683
M73 P1 R115
G1 X97.582 Y101.134 E0.02954
G1 X97.583 Y100.599 E0.01682
G1 X96.918 Y99.935 E0.02955
G1 X96.918 Y99.400 E0.01683
G1 X97.752 Y100.234 E0.03711
;WIPE_START
M73 Q1 S116
G1 F8640.000
G1 X96.918 Y99.400 E-0.27247
G1 X96.918 Y99.935 E-0.12353
G1 X97.583 Y100.599 E-0.21698
G1 X97.582 Y101.134 E-0.12346
G1 X96.929 Y100.480 E-0.21356
;WIPE_END
G1 E-0.05000 F2100.000
G1 Z0.400 F10800.000
G1 X98.133 Y99.010
G1 Z0.200
G1 E1.00000 F2100.000
G1 F1200.000
G1 X95.021 Y95.898 E0.13840
G1 X95.019 Y96.431 E0.01677
G1 X97.583 Y98.995 E0.11404
G1 X97.583 Y99.530 E0.01682
G1 X95.017 Y96.964 E0.11411
G1 X95.016 Y97.497 E0.01677
G1 X96.363 Y98.845 E0.05993
G1 X95.837 Y98.854 E0.01653
G1 X95.014 Y98.030 E0.03663
G1 X95.012 Y98.563 E0.01677
G1 X95.479 Y99.030 E0.02075
;WIPE_START
G1 F8640.000
G1 X95.012 Y98.563 E-0.15233
G1 X95.014 Y98.030 E-0.12310
G1 X95.837 Y98.854 E-0.26894
G1 X96.363 Y98.845 E-0.12139
G1 X95.493 Y97.974 E-0.28424
;WIPE_END
G1 E-0.05000 F2100.000
G1 Z0.400 F10800.000
G1 X94.208 Y104.713
G1 Z0.200
G1 E1.00000 F2100.000
G1 F1200.000
G1 X93.684 Y104.189 E0.02328
G1 X93.180 Y104.220 E0.01589
G1 X94.037 Y105.077 E0.03811
G1 X94.035 Y105.610 E0.01677
G1 X84.620 Y96.194 E0.41876
G1 X84.620 Y95.659 E0.01682
G1 X92.384 Y103.423 E0.34529
G1 X92.383 Y102.888 E0.01683
G1 X84.620 Y95.125 E0.34528
G1 X84.620 Y94.590 E0.01682
G1 X92.383 Y102.353 E0.34527
G1 X92.383 Y101.818 E0.01683
G1 X84.634 Y94.069 E0.34461
G1 X84.693 Y93.774 E0.00948
G1 X84.746 Y93.646 E0.00435
G1 X92.383 Y101.283 E0.33964
G1 X92.382 Y100.747 E0.01683
G1 X84.949 Y93.314 E0.33062
G1 X85.041 Y93.205 E0.00448
G1 X85.223 Y93.053 E0.00745
G1 X92.382 Y100.212 E0.31841
M73 P1 R114
G1 X92.382 Y99.677 E0.01683
G1 X85.576 Y92.871 E0.30270
G1 X85.827 Y92.805 E0.00816
G1 X86.029 Y92.789 E0.00637
G1 X92.382 Y99.142 E0.28254
G1 X92.381 Y98.607 E0.01683
G1 X86.559 Y92.784 E0.25896
G1 X87.093 Y92.784 E0.01682
G1 X92.381 Y98.072 E0.23516
G1 X92.381 Y97.537 E0.01683
G1 X87.628 Y92.784 E0.21136
M73 Q1 S115
G1 X88.163 Y92.784 E0.01682
G1 X92.380 Y97.001 E0.18756
G1 X92.380 Y96.466 E0.01683
G1 X88.698 Y92.784 E0.16376
G1 X89.233 Y92.784 E0.01682
G1 X92.380 Y95.931 E0.13996
G1 X92.380 Y95.396 E0.01683
G1 X89.768 Y92.784 E0.11616
G1 X90.303 Y92.784 E0.01682
G1 X92.863 Y95.344 E0.11387
G1 X93.398 Y95.344 E0.01682
G1 X90.838 Y92.784 E0.11387
G1 X91.372 Y92.784 E0.01682
G1 X93.933 Y95.344 E0.11387
G1 X94.468 Y95.344 E0.01682
G1 X91.907 Y92.784 E0.11387
G1 X92.442 Y92.784 E0.01682
G1 X98.505 Y98.847 E0.26965
G1 X99.051 Y98.858 E0.01716
G1 X92.977 Y92.784 E0.27012
G1 X93.512 Y92.784 E0.01682
G1 X99.486 Y98.758 E0.26567
G1 X99.483 Y98.221 E0.01689
G1 X94.047 Y92.784 E0.24179
G1 X94.582 Y92.784 E0.01682
G1 X99.481 Y97.684 E0.21791
G1 X99.496 Y97.163 E0.01637
G1 X95.117 Y92.784 E0.19477
G1 X95.652 Y92.784 E0.01682
G1 X99.598 Y96.731 E0.17551
G1 X99.682 Y96.515 E0.00728
G1 X99.768 Y96.366 E0.00540
G1 X96.186 Y92.784 E0.15931
G1 X96.721 Y92.784 E0.01682
G1 X99.991 Y96.054 E0.14542
G1 X100.262 Y95.790 E0.01190
G1 X97.256 Y92.784 E0.13370
G1 X97.791 Y92.784 E0.01682
G1 X100.480 Y95.473 E0.11960
G1 X100.480 Y94.938 E0.01682
G1 X98.326 Y92.784 E0.09581
G1 X98.861 Y92.784 E0.01682
G1 X100.480 Y94.404 E0.07202
G1 X100.480 Y93.869 E0.01682
G1 X99.396 Y92.784 E0.04823
