; generated by PrusaSlicer 2.3.3+x64 on 2021-12-04 at 19:32:05 UTC

; 

; external perimeters extrusion width = 0.45mm
; perimeters extrusion width = 0.45mm
; infill extrusion width = 0.45mm
; solid infill extrusion width = 0.45mm
; top infill extrusion width = 0.40mm
; support material extrusion width = 0.35mm
; first layer extrusion width = 0.42mm

M73 P0 R66
M73 Q0 S67
M201 X1000 Y1000 Z200 E5000 ; sets maximum accelerations, mm/sec^2
M203 X200 Y200 Z12 E120 ; sets maximum feedrates, mm/sec
M204 P1250 R1250 T1250 ; sets acceleration (P, T) and retract acceleration (R), mm/sec^2
M205 X8.00 Y8.00 Z0.40 E4.50 ; sets the jerk limits, mm/sec
M205 S0 T0 ; sets the minimum extruding and travel feed rate, mm/sec
M107
;TYPE:Custom
M862.3 P "MK3S" ; printer model check
M862.1 P0.4 ; nozzle diameter check
M115 U3.10.0 ; tell printer latest fw version
G90 ; use absolute coordinates
M83 ; extruder relative mode
M104 S230 ; set extruder temp
M140 S85 ; set bed temp
M190 S85 ; wait for bed temp
M109 S230 ; wait for extruder temp
G28 W ; home all without mesh bed level
G80 ; mesh bed leveling
G1 Y-3.0 F1000.0 ; go outside print area
G92 E0.0
G1 X60.0 E9.0 F1000.0 ; intro line
G1 X100.0 E12.5 F1000.0 ; intro line
G92 E0.0
M221 S95

; Don't change E values below. Excessive value can damage the printer.
M907 E430 ; set extruder motor current
G21 ; set units to millimeters
G90 ; use absolute coordinates
M83 ; use relative distances for extrusion
M900 K0.08 ; Filament gcode LA 1.5
M900 K45 ; Filament gcode LA 1.0
;LAYER_CHANGE
;Z:0.2
;HEIGHT:0.2
;BEFORE_LAYER_CHANGE
G92 E0.0
;0.2


M73 Q0 S66
G1 E-1.00000 F2100.000
G1 Z0.200 F10800.000
;AFTER_LAYER_CHANGE
;0.2
G1 Z0.400
G1 X81.416 Y91.981
G1 Z0.200
G1 E1.00000 F2100.000
M204 S1000
;TYPE:Skirt
;WIDTH:0.42
G1 F1200.000
G1 X82.022 Y90.754 E0.04290
G1 X82.722 Y89.938 E0.03372
G1 X83.802 Y89.172 E0.04151
G1 X84.704 Y88.815 E0.03041
G1 X86.016 Y88.623 E0.04157
G1 X109.540 Y88.373 E0.73763
G1 X140.454 Y88.373 E0.96928
G1 X156.974 Y88.664 E0.51807
G1 X157.633 Y88.840 E0.02138
G1 X158.363 Y89.218 E0.02577
G1 X161.541 Y91.753 E0.12746
G1 X168.404 Y103.364 E0.42290
G1 X168.771 Y104.389 E0.03414
G1 X168.827 Y104.996 E0.01911
G1 X168.790 Y117.553 E0.39370
G1 X168.615 Y118.345 E0.02546
G1 X168.298 Y119.084 E0.02522
G1 X167.883 Y119.711 E0.02355
G1 X167.146 Y120.445 E0.03263
G1 X166.491 Y120.872 E0.02450
G1 X165.850 Y121.147 E0.02189
G1 X165.157 Y121.320 E0.02237
G1 X164.477 Y121.377 E0.02142
G1 X140.450 Y121.627 E0.75338
G1 X109.539 Y121.627 E0.96921
G1 X84.526 Y121.377 E0.78428
G1 X83.565 Y121.230 E0.03048
G1 X82.727 Y120.840 E0.02898
G1 X82.094 Y120.316 E0.02577
G1 X81.558 Y119.566 E0.02890
G1 X81.294 Y118.891 E0.02273
G1 X81.173 Y118.036 E0.02706
G1 X81.181 Y93.296 E0.77573
G1 X81.405 Y92.040 E0.04000
; printing object MOHX-1-2004-21-C - TOP PLATE, TRIBUMP.STL id:1 copy 0
;WIPE_START
G1 F8640.000
G1 X82.022 Y90.754 E-0.32928
G1 X82.722 Y89.938 E-0.24829
G1 X83.802 Y89.172 E-0.30569
G1 X84.071 Y89.066 E-0.06673
;WIPE_END
G1 E-0.05000 F2100.000
G1 Z0.400 F10800.000
G1 X159.712 Y101.187
G1 Z0.200
G1 E1.00000 F2100.000
;TYPE:Support material
G1 F1200.000
G1 X159.712 Y93.272 E0.24814
G1 X158.958 Y93.123 E0.02410
G1 X158.958 Y101.017 E0.24749
G1 X158.204 Y101.017 E0.02365
G1 X158.204 Y92.975 E0.25216
G1 X157.864 Y92.907 E0.01089
G1 X157.864 Y95.322 E0.07571
G1 X157.847 Y95.529 E0.00650
G1 X157.794 Y95.753 E0.00723
G1 X157.703 Y95.968 E0.00733
G1 X157.578 Y96.166 E0.00732
G1 X157.450 Y96.310 E0.00604
G1 X157.450 Y101.017 E0.14760
G1 X156.696 Y101.017 E0.02365
G1 X156.696 Y96.541 E0.14032
;WIPE_START
G1 F8640.000
G1 X156.696 Y100.656 E-0.95000
;WIPE_END
G1 E-0.05000 F2100.000
G1 Z0.400 F10800.000
G1 X157.563 Y105.213
G1 Z0.200
G1 E1.00000 F2100.000
;TYPE:Perimeter
G1 F1200.000
G1 X164.837 Y105.213 E0.22808
G1 X164.837 Y108.487 E0.10266
G1 X157.563 Y108.487 E0.22808
G1 X157.563 Y105.273 E0.10078
G1 X157.940 Y105.590 F10800.000
;TYPE:External perimeter
G1 F1200.000
G1 X164.460 Y105.590 E0.20443
G1 X164.460 Y108.110 E0.07901
G1 X157.940 Y108.110 E0.20443
G1 X157.940 Y105.650 E0.07713
G1 X157.784 Y105.222 F10800.000
;WIPE_START
G1 F8640.000
G1 X162.054 Y105.612 E-0.95000
;WIPE_END
G1 E-0.05000 F2100.000
G1 Z0.400 F10800.000
G1 X164.837 Y114.213
G1 Z0.200
G1 E1.00000 F2100.000
;TYPE:Perimeter
G1 F1200.000
G1 X157.563 Y114.213 E0.22808
G1 X157.563 Y118.213 E0.12542
G1 X150.481 Y118.213 E0.22205
G1 X150.261 Y118.196 E0.00693
G1 X150.076 Y118.151 E0.00596
G1 X149.900 Y118.079 E0.00596
G1 X149.738 Y117.979 E0.00596
G1 X149.594 Y117.856 E0.00596
G1 X149.469 Y117.710 E0.00602
G1 X149.371 Y117.550 E0.00590
G1 X149.299 Y117.374 E0.00595
G1 X149.254 Y117.190 E0.00594
G1 X149.237 Y116.971 E0.00690
G1 X149.237 Y93.387 E0.73945
G1 X154.337 Y93.387 E0.15991
G1 X154.337 Y91.789 E0.05010
G1 X156.481 Y91.797 E0.06722
G1 X156.595 Y91.855 E0.00401
G1 X156.653 Y91.969 E0.00400
G1 X156.663 Y95.258 E0.10314
M73 P0 R65
G1 X156.643 Y95.381 E0.00389
G1 X156.544 Y95.501 E0.00487
G1 X156.224 Y95.614 E0.01063
G1 X155.966 Y95.755 E0.00924
G1 X155.734 Y95.937 E0.00924
G1 X155.535 Y96.154 E0.00924
G1 X155.374 Y96.401 E0.00924
G1 X155.257 Y96.671 E0.00924
G1 X155.184 Y96.956 E0.00924
G1 X155.163 Y97.218 E0.00822
G1 X155.163 Y103.031 E0.18227
G1 X155.183 Y103.280 E0.00783
G1 X155.248 Y103.553 E0.00880
G1 X155.356 Y103.812 E0.00880
G1 X155.502 Y104.052 E0.00880
G1 X155.685 Y104.265 E0.00880
G1 X155.898 Y104.448 E0.00880
G1 X156.138 Y104.594 E0.00880
G1 X156.397 Y104.702 E0.00880
G1 X156.670 Y104.767 E0.00880
G1 X156.919 Y104.787 E0.00782
G1 X165.482 Y104.797 E0.26849
G1 X165.595 Y104.855 E0.00398
G1 X165.642 Y104.920 E0.00252
G1 X165.663 Y105.053 E0.00423
G1 X165.663 Y116.969 E0.37361
G1 X165.646 Y117.189 E0.00693
G1 X165.601 Y117.374 E0.00596
G1 X165.529 Y117.550 E0.00596
G1 X165.429 Y117.712 E0.00596
G1 X165.306 Y117.856 E0.00596
G1 X165.162 Y117.979 E0.00596
G1 X165.000 Y118.079 E0.00596
G1 X164.837 Y118.146 E0.00551
G1 X164.837 Y114.273 E0.12143
G1 X164.460 Y114.590 F10800.000
;TYPE:External perimeter
G1 F1200.000
G1 X157.940 Y114.590 E0.20443
G1 X157.940 Y118.590 E0.12542
G1 X150.466 Y118.590 E0.23434
G1 X150.201 Y118.569 E0.00832
G1 X149.959 Y118.511 E0.00782
G1 X149.729 Y118.416 E0.00782
G1 X149.516 Y118.285 E0.00782
G1 X149.327 Y118.123 E0.00782
G1 X149.163 Y117.932 E0.00788
G1 X149.034 Y117.721 E0.00776
G1 X148.939 Y117.491 E0.00781
G1 X148.881 Y117.249 E0.00780
G1 X148.860 Y116.986 E0.00829
G1 X148.860 Y93.010 E0.75174
G1 X153.960 Y93.010 E0.15991
G1 X153.960 Y91.411 E0.05014
G1 X156.541 Y91.420 E0.08094
G1 X156.716 Y91.477 E0.00577
G1 X156.865 Y91.585 E0.00576
G1 X156.973 Y91.734 E0.00576
G1 X157.030 Y91.909 E0.00577
G1 X157.040 Y95.288 E0.10598
G1 X157.005 Y95.504 E0.00686
G1 X156.914 Y95.673 E0.00599
G1 X156.766 Y95.809 E0.00631
G1 X156.378 Y95.960 E0.01305
G1 X156.174 Y96.071 E0.00728
G1 X155.991 Y96.214 E0.00728
G1 X155.834 Y96.386 E0.00728
G1 X155.708 Y96.580 E0.00728
G1 X155.615 Y96.793 E0.00728
G1 X155.558 Y97.019 E0.00728
G1 X155.540 Y97.233 E0.00675
G1 X155.540 Y103.016 E0.18132
G1 X155.556 Y103.221 E0.00644
G1 X155.608 Y103.436 E0.00694
G1 X155.693 Y103.641 E0.00694
G1 X155.808 Y103.830 E0.00694
G1 X155.952 Y103.998 E0.00694
G1 X156.120 Y104.142 E0.00694
G1 X156.309 Y104.257 E0.00694
G1 X156.514 Y104.342 E0.00694
G1 X156.729 Y104.394 E0.00694
G1 X156.934 Y104.410 E0.00643
G1 X165.542 Y104.420 E0.26989
G1 X165.716 Y104.477 E0.00576
G1 X165.865 Y104.585 E0.00576
G1 X165.978 Y104.740 E0.00602
G1 X166.007 Y104.810 E0.00237
G1 X166.040 Y105.024 E0.00679
G1 X166.040 Y116.984 E0.37499
G1 X166.019 Y117.249 E0.00832
G1 X165.961 Y117.491 E0.00782
G1 X165.866 Y117.721 E0.00782
G1 X165.735 Y117.934 E0.00782
G1 X165.573 Y118.123 E0.00782
G1 X165.384 Y118.285 E0.00782
G1 X165.171 Y118.416 E0.00782
G1 X164.941 Y118.511 E0.00782
G1 X164.702 Y118.568 E0.00771
G1 X164.460 Y118.580 E0.00759
G1 X164.460 Y114.650 E0.12322
G1 X164.452 Y114.190 F10800.000
G1 X164.482 Y114.100
;TYPE:Solid infill
;WIDTH:0.422298
G1 F1200.000
G1 X159.152 Y108.770 E0.23778
G1 X158.615 Y108.770 E0.01692
G1 X163.775 Y113.930 E0.23021
G1 X163.239 Y113.930 E0.01692
G1 X157.909 Y108.600 E0.23778
G1 X157.450 Y108.141 F10800.000
G1 F1200.000
G1 X149.520 Y100.211 E0.35377
G1 X149.520 Y99.675 E0.01692
G1 X157.280 Y107.435 E0.34620
G1 X157.280 Y106.898 E0.01692
G1 X149.520 Y99.138 E0.34620
G1 X149.520 Y98.602 E0.01692
G1 X157.450 Y106.532 E0.35377
;WIPE_START
G1 F8640.000
G1 X154.541 Y103.622 E-0.95000
;WIPE_END
G1 E-0.05000 F2100.000
G1 Z0.400 F10800.000
G1 X156.890 Y104.898
G1 Z0.200
G1 E1.00000 F2100.000
G1 F1200.000
G1 X157.280 Y105.289 E0.01742
G1 X157.280 Y105.825 E0.01692
G1 X156.464 Y105.009 E0.03643
G1 X156.309 Y104.972 E0.00500
G1 X156.009 Y104.847 E0.01026
G1 X155.731 Y104.677 E0.01026
G1 X155.484 Y104.466 E0.01026
G1 X155.273 Y104.219 E0.01026
G1 X155.103 Y103.941 E0.01026
G1 X154.978 Y103.641 E0.01026
G1 X154.941 Y103.486 E0.00500
G1 X149.520 Y98.065 E0.24186
G1 X149.520 Y97.529 E0.01692
G1 X154.880 Y102.889 E0.23913
G1 X154.880 Y102.352 E0.01692
G1 X149.520 Y96.992 E0.23913
M73 Q1 S66
G1 X149.520 Y96.455 E0.01692
G1 X154.880 Y101.816 E0.23913
M73 P1 R65
G1 X154.880 Y101.279 E0.01692
G1 X149.520 Y95.919 E0.23913
G1 X149.520 Y95.382 E0.01692
G1 X154.880 Y100.743 E0.23913
G1 X154.880 Y100.206 E0.01692
G1 X149.520 Y94.846 E0.23913
G1 X149.520 Y94.309 E0.01692
G1 X154.880 Y99.670 E0.23913
G1 X154.880 Y99.133 E0.01692
G1 X149.520 Y93.773 E0.23913
G1 X149.520 Y93.670 E0.00325
G1 X149.953 Y93.670 E0.01368
G1 X154.880 Y98.597 E0.21979
G1 X154.880 Y98.060 E0.01692
G1 X150.490 Y93.670 E0.19586
G1 X151.026 Y93.670 E0.01692
G1 X154.880 Y97.524 E0.17192
G1 X154.897 Y97.004 E0.01641
G1 X151.563 Y93.670 E0.14873
G1 X152.099 Y93.670 E0.01692
G1 X154.994 Y96.565 E0.12914
G1 X155.167 Y96.201 E0.01270
G1 X152.636 Y93.670 E0.11292
G1 X153.173 Y93.670 E0.01692
G1 X155.393 Y95.890 E0.09906
G1 X155.541 Y95.729 E0.00692
G1 X155.668 Y95.629 E0.00509
G1 X153.709 Y93.670 E0.08740
G1 X154.246 Y93.670 E0.01692
G1 X155.993 Y95.418 E0.07798
G1 X156.109 Y95.355 E0.00414
G1 X156.373 Y95.261 E0.00886
G1 X154.620 Y93.508 E0.07823
G1 X154.620 Y92.971 E0.01692
G1 X156.378 Y94.730 E0.07845
G1 X156.377 Y94.191 E0.01698
G1 X154.620 Y92.435 E0.07838
G1 X154.620 Y92.073 E0.01140
G1 X154.796 Y92.074 E0.00554
G1 X156.375 Y93.653 E0.07047
G1 X156.373 Y93.115 E0.01698
G1 X155.334 Y92.076 E0.04637
G1 X155.873 Y92.078 E0.01699
G1 X156.542 Y92.747 E0.02987
;WIPE_START
G1 F8640.000
G1 X155.873 Y92.078 E-0.21860
G1 X155.334 Y92.076 E-0.12435
G1 X156.373 Y93.115 E-0.33941
G1 X156.375 Y93.653 E-0.12426
G1 X155.936 Y93.214 E-0.14338
;WIPE_END
G1 E-0.05000 F2100.000
G1 Z0.400 F10800.000
G1 X165.550 Y105.511
G1 Z0.200
G1 E1.00000 F2100.000
G1 F1200.000
G1 X165.120 Y105.081 E0.01918
G1 X165.120 Y105.617 E0.01692
G1 X165.380 Y105.877 E0.01161
G1 X165.380 Y106.414 E0.01692
G1 X165.120 Y106.154 E0.01161
G1 X165.120 Y106.690 E0.01692
G1 X165.380 Y106.951 E0.01161
G1 X165.380 Y107.487 E0.01692
G1 X165.120 Y107.227 E0.01161
G1 X165.120 Y107.763 E0.01692
G1 X165.380 Y108.024 E0.01161
G1 X165.380 Y108.560 E0.01692
G1 X165.120 Y108.300 E0.01161
G1 X165.120 Y108.770 E0.01483
G1 X165.053 Y108.770 E0.00210
G1 X165.380 Y109.097 E0.01458
G1 X165.380 Y109.633 E0.01692
G1 X164.517 Y108.770 E0.03851
G1 X163.980 Y108.770 E0.01692
G1 X165.380 Y110.170 E0.06245
G1 X165.380 Y110.706 E0.01692
G1 X163.444 Y108.770 E0.08638
G1 X162.907 Y108.770 E0.01692
G1 X165.380 Y111.243 E0.11032
G1 X165.380 Y111.779 E0.01692
G1 X162.371 Y108.770 E0.13425
G1 X161.834 Y108.770 E0.01692
G1 X165.380 Y112.316 E0.15819
G1 X165.380 Y112.852 E0.01692
G1 X161.298 Y108.770 E0.18212
G1 X160.761 Y108.770 E0.01692
G1 X165.380 Y113.389 E0.20606
G1 X165.380 Y113.925 E0.01692
G1 X160.225 Y108.770 E0.22999
G1 X159.688 Y108.770 E0.01692
G1 X165.380 Y114.462 E0.25393
G1 X165.380 Y114.998 E0.01692
G1 X165.120 Y114.738 E0.01161
G1 X165.120 Y115.275 E0.01692
G1 X165.380 Y115.535 E0.01161
G1 X165.380 Y116.071 E0.01692
G1 X165.120 Y115.811 E0.01161
G1 X165.120 Y116.348 E0.01692
G1 X165.380 Y116.608 E0.01161
G1 X165.367 Y117.131 E0.01650
G1 X165.120 Y116.884 E0.01100
G1 X165.120 Y117.421 E0.01692
G1 X165.340 Y117.641 E0.00982
;WIPE_START
G1 F8640.000
G1 X165.120 Y117.421 E-0.07187
G1 X165.120 Y116.884 E-0.12388
G1 X165.367 Y117.131 E-0.08054
G1 X165.380 Y116.608 E-0.12078
G1 X165.120 Y116.348 E-0.08498
G1 X165.120 Y115.811 E-0.12388
G1 X165.380 Y116.071 E-0.08498
G1 X165.380 Y115.535 E-0.12388
G1 X165.120 Y115.275 E-0.08498
G1 X165.120 Y115.057 E-0.05022
;WIPE_END
G1 E-0.05000 F2100.000
G1 Z0.400 F10800.000
G1 X162.872 Y114.100
G1 Z0.200
G1 E1.00000 F2100.000
G1 F1200.000
G1 X149.520 Y100.748 E0.59567
G1 X149.520 Y101.284 E0.01692
G1 X162.166 Y113.930 E0.56416
G1 X161.629 Y113.930 E0.01692
G1 X149.520 Y101.821 E0.54022
G1 X149.520 Y102.357 E0.01692
G1 X161.093 Y113.930 E0.51629
G1 X160.556 Y113.930 E0.01692
G1 X149.520 Y102.894 E0.49235
G1 X149.520 Y103.430 E0.01692
G1 X160.020 Y113.930 E0.46842
G1 X159.483 Y113.930 E0.01692
G1 X149.520 Y103.967 E0.44448
G1 X149.520 Y104.503 E0.01692
G1 X158.947 Y113.930 E0.42055
G1 X158.410 Y113.930 E0.01692
G1 X149.520 Y105.040 E0.39661
G1 X149.520 Y105.576 E0.01692
G1 X157.874 Y113.930 E0.37268
G1 X157.337 Y113.930 E0.01692
G1 X149.520 Y106.113 E0.34874
G1 X149.520 Y106.649 E0.01692
G1 X157.280 Y114.410 E0.34620
G1 X157.280 Y114.946 E0.01692
G1 X149.520 Y107.186 E0.34620
G1 X149.520 Y107.722 E0.01692
G1 X157.280 Y115.483 E0.34620
G1 X157.280 Y116.019 E0.01692
G1 X149.520 Y108.259 E0.34620
G1 X149.520 Y108.795 E0.01692
G1 X157.280 Y116.556 E0.34620
G1 X157.280 Y117.092 E0.01692
G1 X149.520 Y109.332 E0.34620
G1 X149.520 Y109.869 E0.01692
G1 X157.280 Y117.629 E0.34620
G1 X157.280 Y117.930 E0.00951
G1 X157.045 Y117.930 E0.00742
G1 X149.520 Y110.405 E0.33571
G1 X149.520 Y110.942 E0.01692
G1 X156.508 Y117.930 E0.31177
G1 X155.972 Y117.930 E0.01692
G1 X149.520 Y111.478 E0.28784
G1 X149.520 Y112.015 E0.01692
G1 X155.435 Y117.930 E0.26390
G1 X154.899 Y117.930 E0.01692
G1 X149.520 Y112.551 E0.23997
G1 X149.520 Y113.088 E0.01692
G1 X154.362 Y117.930 E0.21603
G1 X153.826 Y117.930 E0.01692
G1 X149.520 Y113.624 E0.19210
M73 Q1 S65
G1 X149.520 Y114.161 E0.01692
G1 X153.289 Y117.930 E0.16816
G1 X152.753 Y117.930 E0.01692
G1 X149.520 Y114.697 E0.14423
G1 X149.520 Y115.234 E0.01692
G1 X152.216 Y117.930 E0.12029
G1 X151.680 Y117.930 E0.01692
G1 X149.520 Y115.770 E0.09636
G1 X149.520 Y116.307 E0.01692
G1 X151.143 Y117.930 E0.07242
G1 X150.607 Y117.930 E0.01692
G1 X149.520 Y116.843 E0.04848
G1 X149.535 Y117.146 E0.00955
G1 X149.624 Y117.421 E0.00913
G1 X149.790 Y117.650 E0.00893
G1 X150.206 Y118.066 E0.01856
; stop printing object MOHX-1-2004-21-C - TOP PLATE, TRIBUMP.STL id:1 copy 0
; printing object MOHX-1-3002-21-B - SHAFT EXT, JOYSTICK.STL id:2 copy 0
;WIPE_START
G1 F8640.000
G1 X149.790 Y117.650 E-0.13587
G1 X149.624 Y117.421 E-0.06537
G1 X149.535 Y117.146 E-0.06682
G1 X149.520 Y116.843 E-0.06992
G1 X150.607 Y117.930 E-0.35490
G1 X151.143 Y117.930 E-0.12388
G1 X150.735 Y117.522 E-0.13325
;WIPE_END
G1 E-0.05000 F2100.000
G1 Z0.400 F10800.000
G1 X138.575 Y98.534
G1 Z0.200
G1 E1.00000 F2100.000
;TYPE:Support material
;WIDTH:0.42
G1 F1200.000
G1 X138.575 Y111.467 E0.40551
G1 X138.730 Y111.562 E0.00572
G1 X138.960 Y111.658 E0.00780
G1 X139.202 Y111.716 E0.00780
G1 X139.329 Y111.726 E0.00399
G1 X139.329 Y98.474 E0.41549
G1 X140.083 Y98.464 E0.02365
G1 X140.083 Y111.736 E0.41616
G1 X140.744 Y111.736 E0.02072
G1 X140.779 Y111.702 E0.00154
G1 X140.837 Y111.702 E0.00184
G1 X140.837 Y98.498 E0.41398
G1 X141.591 Y98.498 E0.02365
G1 X141.591 Y111.702 E0.41398
G1 X142.346 Y111.702 E0.02365
G1 X142.346 Y98.498 E0.41398
G1 X142.621 Y98.498 E0.00864
G1 X142.864 Y98.256 E0.01074
G1 X142.864 Y95.076 E0.09970
G1 X143.100 Y95.076 E0.00741
G1 X143.100 Y114.924 E0.62230
G1 X143.854 Y114.924 E0.02365
G1 X143.854 Y95.076 E0.62230
G1 X144.608 Y95.076 E0.02365
G1 X144.608 Y114.924 E0.62230
G1 X145.362 Y114.924 E0.02365
G1 X145.362 Y95.076 E0.62230
G1 X146.116 Y95.076 E0.02365
G1 X146.116 Y115.093 E0.62762
;WIPE_START
G1 F8640.000
