; generated by PrusaSlicer 2.3.3+win64 on 2021-12-02 at 00:30:59 UTC

; 

; external perimeters extrusion width = 0.45mm
; perimeters extrusion width = 0.45mm
; infill extrusion width = 0.45mm
; solid infill extrusion width = 0.45mm
; top infill extrusion width = 0.40mm
; support material extrusion width = 0.35mm
; first layer extrusion width = 0.42mm

M73 P0 R58
M73 Q0 S59
M201 X1000 Y1000 Z200 E5000 ; sets maximum accelerations, mm/sec^2
M203 X200 Y200 Z12 E120 ; sets maximum feedrates, mm/sec
M204 P1250 R1250 T1250 ; sets acceleration (P, T) and retract acceleration (R), mm/sec^2
M205 X8.00 Y8.00 Z0.40 E4.50 ; sets the jerk limits, mm/sec
M205 S0 T0 ; sets the minimum extruding and travel feed rate, mm/sec
M107
;TYPE:Custom
M862.3 P "MK3S" ; printer model check
M862.1 P0.4 ; nozzle diameter check
M115 U3.10.0 ; tell printer latest fw version
G90 ; use absolute coordinates
M83 ; extruder relative mode
M104 S215 ; set extruder temp
M140 S60 ; set bed temp
M190 S60 ; wait for bed temp
M109 S215 ; wait for extruder temp
G28 W ; home all without mesh bed level
G80 ; mesh bed leveling
G1 Y-3.0 F1000.0 ; go outside print area
G92 E0.0
G1 X60.0 E9.0 F1000.0 ; intro line
M73 Q0 S58
G1 X100.0 E12.5 F1000.0 ; intro line
G92 E0.0
M221 S95

; Don't change E values below. Excessive value can damage the printer.
M907 E430 ; set extruder motor current
G21 ; set units to millimeters
G90 ; use absolute coordinates
M83 ; use relative distances for extrusion
M900 K0.05 ; Filament gcode LA 1.5
M900 K30 ; Filament gcode LA 1.0
;LAYER_CHANGE
;Z:0.2
;HEIGHT:0.2
;BEFORE_LAYER_CHANGE
G92 E0.0
;0.2


G1 E-0.80000 F2100.000
G1 Z0.400 F10800.000
;AFTER_LAYER_CHANGE
;0.2
G1 X119.689 Y89.868
G1 Z0.200
G1 E0.80000 F2100.000
M204 S1000
;TYPE:Skirt
;WIDTH:0.42
G1 F1200.000
G1 X120.080 Y89.280 E0.02213
G1 X120.629 Y88.831 E0.02225
G1 X144.798 Y74.981 E0.87340
G1 X150.467 Y73.188 E0.18642
G1 X153.846 Y73.140 E0.10597
G1 X154.762 Y73.269 E0.02899
G1 X155.528 Y73.593 E0.02610
G1 X158.557 Y75.843 E0.11828
G1 X158.961 Y76.239 E0.01775
G1 X166.002 Y88.330 E0.43869
G1 X166.166 Y88.921 E0.01924
G1 X166.219 Y89.479 E0.01757
G1 X166.219 Y101.551 E0.37852
G1 X166.132 Y102.373 E0.02593
G1 X165.777 Y103.432 E0.03500
G1 X165.302 Y104.195 E0.02819
G1 X142.318 Y132.231 E1.13668
G1 X141.416 Y133.238 E0.04239
G1 X140.383 Y134.160 E0.04340
G1 X139.239 Y134.971 E0.04400
G1 X137.922 Y135.686 E0.04697
G1 X136.754 Y136.166 E0.03958
G1 X135.546 Y136.518 E0.03946
G1 X134.132 Y136.772 E0.04506
G1 X132.689 Y136.860 E0.04530
G1 X125.609 Y136.860 E0.22199
G1 X124.813 Y136.748 E0.02520
G1 X124.207 Y136.528 E0.02022
G1 X123.556 Y136.117 E0.02415
G1 X122.922 Y135.450 E0.02885
G1 X122.499 Y134.650 E0.02839
G1 X122.313 Y133.872 E0.02507
G1 X119.469 Y93.017 E1.28408
G1 X119.471 Y90.711 E0.07230
G1 X119.674 Y89.926 E0.02543
; printing object MOHX-1-2003-21-B - BASE PLATE, TRIBUMP.STL id:0 copy 0
;WIPE_START
G1 F8640.000
G1 X120.080 Y89.280 E-0.17613
G1 X120.629 Y88.831 E-0.16385
G1 X122.207 Y87.927 E-0.42001
;WIPE_END
G1 E-0.04000 F2100.000
G1 Z0.600 F10800.000
G1 X142.716 Y117.639
G1 Z0.200
G1 E0.80000 F2100.000
;TYPE:Support material
G1 F1200.000
G1 X142.716 Y112.681 E0.15547
;WIPE_START
G1 F8640.000
G1 X142.716 Y115.972 E-0.76000
;WIPE_END
G1 E-0.04000 F2100.000
G1 Z0.600 F10800.000
G1 X140.902 Y114.301
G1 Z0.200
G1 E0.80000 F2100.000
;TYPE:External perimeter
G1 F1200.000
G1 X140.927 Y122.293 E0.25060
G1 X139.356 Y122.293 E0.04925
G1 X139.359 Y114.271 E0.25154
G1 X140.842 Y114.300 E0.04653
G1 X141.260 Y114.123 F10800.000
;WIPE_START
G1 F8640.000
G1 X140.877 Y117.591 E-0.76000
;WIPE_END
G1 E-0.04000 F2100.000
G1 Z0.600 F10800.000
G1 X133.402 Y110.019
G1 Z0.200
G1 E0.80000 F2100.000
;TYPE:Perimeter
G1 F1200.000
G1 X136.234 Y110.019 E0.08879
G1 X136.222 Y113.537 E0.11030
G1 X138.129 Y113.510 E0.05978
G1 X138.131 Y123.047 E0.29903
G1 X135.049 Y123.047 E0.09662
G1 X135.062 Y119.037 E0.12576
G1 X133.406 Y119.137 E0.05201
G1 X133.402 Y110.079 E0.28400
G1 X133.779 Y110.396 F10800.000
G1 F1200.000
G1 X135.855 Y110.396 E0.06510
G1 X135.844 Y113.925 E0.11065
G1 X137.752 Y113.892 E0.05983
G1 X137.754 Y122.670 E0.27525
G1 X135.428 Y122.670 E0.07293
G1 X135.440 Y118.636 E0.12650
G1 X133.783 Y118.736 E0.05205
G1 X133.779 Y110.456 E0.25962
;WIPE_START
G1 F8640.000
G1 X135.855 Y110.396 E-0.47964
G1 X135.851 Y111.610 E-0.28036
;WIPE_END
G1 E-0.04000 F2100.000
G1 Z0.600 F10800.000
G1 X135.831 Y114.303
G1 Z0.200
G1 E0.80000 F2100.000
;TYPE:External perimeter
G1 F1200.000
G1 X137.375 Y114.273 E0.04842
G1 X137.376 Y122.293 E0.25148
G1 X135.806 Y122.293 E0.04925
G1 X135.830 Y114.363 E0.24866
G1 X135.800 Y113.904 F10800.000
;WIPE_START
G1 F8640.000
G1 X137.375 Y114.273 E-0.35718
G1 X137.375 Y116.017 E-0.40282
;WIPE_END
G1 E-0.04000 F2100.000
G1 Z0.600 F10800.000
G1 X134.156 Y110.773
G1 Z0.200
G1 E0.80000 F2100.000
G1 F1200.000
G1 X135.477 Y110.773 E0.04141
G1 X135.452 Y118.257 E0.23466
G1 X134.160 Y118.336 E0.04059
G1 X134.156 Y110.833 E0.23524
G1 X134.133 Y110.374 F10800.000
;WIPE_START
G1 F8640.000
G1 X135.477 Y110.773 E-0.30528
G1 X135.471 Y112.743 E-0.45472
;WIPE_END
G1 E-0.04000 F2100.000
G1 Z0.600 F10800.000
G1 X138.606 Y113.502
G1 Z0.200
G1 E0.80000 F2100.000
;TYPE:Perimeter
G1 F1200.000
G1 X138.602 Y123.047 E0.29929
G1 X141.502 Y123.047 E0.09093
G1 X141.502 Y124.451 E0.04399
G1 X141.445 Y125.472 E0.03209
G1 X141.279 Y126.449 E0.03106
G1 X141.005 Y127.401 E0.03106
G1 X140.626 Y128.316 E0.03106
G1 X140.146 Y129.183 E0.03106
G1 X139.573 Y129.991 E0.03106
G1 X138.913 Y130.730 E0.03106
G1 X138.174 Y131.390 E0.03106
G1 X137.366 Y131.963 E0.03106
G1 X136.499 Y132.442 E0.03106
G1 X135.584 Y132.822 E0.03106
G1 X134.632 Y133.096 E0.03106
G1 X133.656 Y133.262 E0.03106
G1 X132.634 Y133.319 E0.03209
G1 X125.831 Y133.319 E0.21331
G1 X125.831 Y109.027 E0.76165
G1 X125.850 Y108.775 E0.00793
G1 X125.899 Y108.572 E0.00656
G1 X125.979 Y108.378 E0.00656
G1 X126.089 Y108.200 E0.00656
G1 X126.224 Y108.041 E0.00655
G1 X126.383 Y107.905 E0.00655
G1 X126.562 Y107.796 E0.00656
G1 X126.755 Y107.716 E0.00655
G1 X126.958 Y107.667 E0.00655
G1 X127.212 Y107.647 E0.00799
G1 X140.621 Y107.647 E0.42041
G1 X140.797 Y107.661 E0.00553
G1 X141.044 Y107.742 E0.00816
G1 X141.255 Y107.895 E0.00816
G1 X141.340 Y107.994 E0.00409
G1 X141.458 Y108.226 E0.00816
G1 X141.488 Y108.353 E0.00409
G1 X141.502 Y108.529 E0.00553
G1 X141.502 Y110.361 E0.05744
G1 X141.315 Y110.489 E0.00710
G1 X141.078 Y110.709 E0.01016
G1 X140.876 Y110.962 E0.01016
G1 X140.714 Y111.243 E0.01016
G1 X140.595 Y111.544 E0.01016
G1 X140.523 Y111.860 E0.01016
G1 X140.502 Y112.142 E0.00885
G1 X140.508 Y113.539 E0.04381
G1 X138.666 Y113.503 E0.05775
G1 X138.982 Y113.886 F10800.000
G1 F1200.000
G1 X138.979 Y122.670 E0.27541
G1 X141.305 Y122.670 E0.07293
G1 X141.293 Y118.643 E0.12628
G1 X141.880 Y118.655 E0.01842
G1 X141.879 Y124.461 E0.18205
G1 X141.820 Y125.515 E0.03308
G1 X141.647 Y126.533 E0.03239
G1 X141.361 Y127.526 E0.03239
G1 X140.966 Y128.480 E0.03239
G1 X140.466 Y129.384 E0.03239
G1 X139.868 Y130.227 E0.03239
G1 X139.180 Y130.997 E0.03239
G1 X138.410 Y131.685 E0.03239
G1 X137.567 Y132.283 E0.03239
G1 X136.663 Y132.783 E0.03239
G1 X135.709 Y133.178 E0.03239
G1 X134.716 Y133.464 E0.03239
G1 X133.698 Y133.637 E0.03239
G1 X132.644 Y133.696 E0.03308
G1 X125.697 Y133.696 E0.21782
G1 X125.573 Y133.666 E0.00400
G1 X125.484 Y133.576 E0.00397
G1 X125.454 Y133.452 E0.00400
G1 X125.454 Y109.013 E0.76629
G1 X125.477 Y108.716 E0.00933
G1 X125.540 Y108.455 E0.00842
G1 X125.642 Y108.207 E0.00842
G1 X125.783 Y107.978 E0.00842
G1 X125.957 Y107.774 E0.00842
G1 X126.161 Y107.599 E0.00841
G1 X126.390 Y107.459 E0.00842
G1 X126.638 Y107.357 E0.00842
G1 X126.899 Y107.294 E0.00842
G1 X127.197 Y107.270 E0.00939
G1 X140.636 Y107.270 E0.42134
G1 X140.856 Y107.288 E0.00693
G1 X141.041 Y107.332 E0.00596
G1 X141.216 Y107.405 E0.00596
G1 X141.378 Y107.504 E0.00596
G1 X141.522 Y107.627 E0.00596
G1 X141.646 Y107.772 E0.00596
G1 X141.745 Y107.934 E0.00596
G1 X141.818 Y108.109 E0.00596
G1 X141.862 Y108.294 E0.00596
G1 X141.879 Y108.514 E0.00693
G1 X141.879 Y110.400 E0.05914
G1 X141.863 Y110.512 E0.00355
G1 X141.821 Y110.595 E0.00289
G1 X141.551 Y110.784 E0.01035
G1 X141.355 Y110.966 E0.00838
G1 X141.188 Y111.175 E0.00838
G1 X141.054 Y111.407 E0.00839
G1 X140.957 Y111.656 E0.00839
G1 X140.897 Y111.917 E0.00838
G1 X140.879 Y112.155 E0.00750
G1 X140.886 Y113.923 E0.05545
G1 X139.042 Y113.888 E0.05783
;WIPE_START
G1 F8640.000
G1 X139.019 Y117.179 E-0.76000
;WIPE_END
G1 E-0.04000 F2100.000
G1 Z0.600 F10800.000
M73 Q1 S58
G1 X141.281 Y118.266
G1 Z0.200
M73 P1 R58
G1 E0.80000 F2100.000
;TYPE:External perimeter
G1 F1200.000
G1 X142.257 Y118.285 E0.03062
G1 X142.256 Y124.472 E0.19397
G1 X142.195 Y125.557 E0.03408
G1 X142.015 Y126.617 E0.03372
G1 X141.718 Y127.650 E0.03372
G1 X141.306 Y128.644 E0.03372
G1 X140.786 Y129.585 E0.03372
G1 X140.164 Y130.462 E0.03372
G1 X139.447 Y131.264 E0.03372
G1 X138.645 Y131.981 E0.03372
G1 X137.768 Y132.603 E0.03372
G1 X136.827 Y133.123 E0.03372
G1 X135.834 Y133.535 E0.03372
G1 X134.800 Y133.832 E0.03372
G1 X133.740 Y134.012 E0.03372
G1 X132.655 Y134.073 E0.03408
G1 X125.683 Y134.073 E0.21861
G1 X125.583 Y134.065 E0.00314
G1 X125.400 Y134.006 E0.00602
G1 X125.252 Y133.898 E0.00576
G1 X125.144 Y133.750 E0.00576
G1 X125.084 Y133.567 E0.00602
G1 X125.076 Y133.467 E0.00314
G1 X125.076 Y108.998 E0.76722
G1 X125.103 Y108.657 E0.01072
G1 X125.180 Y108.338 E0.01028
G1 X125.305 Y108.035 E0.01029
G1 X125.477 Y107.755 E0.01028
G1 X125.690 Y107.506 E0.01028
G1 X125.939 Y107.293 E0.01027
G1 X126.218 Y107.122 E0.01028
G1 X126.521 Y106.997 E0.01028
G1 X126.840 Y106.920 E0.01028
G1 X127.183 Y106.893 E0.01078
G1 X140.650 Y106.893 E0.42227
G1 X140.915 Y106.914 E0.00832
G1 X141.157 Y106.972 E0.00782
G1 X141.388 Y107.068 E0.00782
G1 X141.600 Y107.198 E0.00782
G1 X141.790 Y107.360 E0.00782
G1 X141.952 Y107.549 E0.00782
G1 X142.082 Y107.762 E0.00782
G1 X142.177 Y107.992 E0.00782
G1 X142.236 Y108.235 E0.00782
G1 X142.256 Y108.499 E0.00832
G1 X142.256 Y110.428 E0.06048
G1 X142.227 Y110.624 E0.00622
G1 X142.148 Y110.789 E0.00573
G1 X142.034 Y110.912 E0.00526
G1 X141.787 Y111.080 E0.00937
G1 X141.632 Y111.223 E0.00661
G1 X141.500 Y111.388 E0.00661
G1 X141.395 Y111.571 E0.00661
G1 X141.318 Y111.767 E0.00661
G1 X141.271 Y111.973 E0.00661
G1 X141.256 Y112.168 E0.00614
G1 X141.281 Y118.206 E0.18929
G1 X141.276 Y118.666 F10800.000
G1 X141.587 Y118.837
;TYPE:Gap fill
;WIDTH:0.25211
G1 F1200.000
G1 X141.593 Y122.859 E0.06995
;WIPE_START
G1 F8640.000
G1 X141.588 Y119.567 E-0.76000
;WIPE_END
G1 E-0.04000 F2100.000
G1 Z0.600 F10800.000
G1 X138.367 Y123.236
G1 Z0.200
G1 E0.80000 F2100.000
;WIDTH:0.143753
G1 F1200.000
G1 X138.368 Y113.319 E0.08314
;WIPE_START
G1 F8640.000
G1 X138.367 Y116.611 E-0.76000
;WIPE_END
G1 E-0.04000 F2100.000
G1 Z0.600 F10800.000
G1 X140.724 Y107.769
G1 Z0.200
G1 E0.80000 F2100.000
;TYPE:Solid infill
;WIDTH:0.424994
G1 F1200.000
G1 X141.053 Y108.098 E0.01479
G1 X141.160 Y108.245 E0.00575
G1 X141.219 Y108.550 E0.00988
G1 X141.219 Y108.805 E0.00811
G1 X140.345 Y107.930 E0.03930
G1 X139.804 Y107.930 E0.01717
G1 X141.219 Y109.345 E0.06357
G1 X141.219 Y109.886 E0.01717
G1 X139.264 Y107.930 E0.08785
G1 X138.724 Y107.930 E0.01717
G1 X141.098 Y110.304 E0.10667
G1 X140.825 Y110.572 E0.01214
G1 X138.183 Y107.930 E0.11869
G1 X137.643 Y107.930 E0.01717
G1 X140.595 Y110.882 E0.13264
G1 X140.458 Y111.120 E0.00871
G1 X140.411 Y111.239 E0.00406
G1 X137.103 Y107.930 E0.14865
G1 X136.562 Y107.930 E0.01717
G1 X140.281 Y111.649 E0.16708
G1 X140.243 Y111.818 E0.00550
G1 X140.220 Y112.128 E0.00987
G1 X136.022 Y107.930 E0.18859
G1 X135.482 Y107.930 E0.01717
G1 X140.221 Y112.670 E0.21295
M73 P1 R57
G1 X140.224 Y113.212 E0.01724
G1 X134.941 Y107.930 E0.23732
G1 X134.401 Y107.930 E0.01717
G1 X139.711 Y113.241 E0.23859
G1 X139.160 Y113.230 E0.01751
G1 X136.515 Y110.584 E0.11887
G1 X136.513 Y111.123 E0.01711
G1 X138.427 Y113.037 E0.08599
G1 X138.013 Y113.036 E0.01314
G1 X138.013 Y113.163 E0.00404
G1 X136.511 Y111.661 E0.06748
G1 X136.509 Y112.200 E0.01711
G1 X137.545 Y113.236 E0.04654
G1 X137.012 Y113.243 E0.01693
G1 X136.338 Y112.569 E0.03028
;WIPE_START
G1 F8640.000
G1 X137.012 Y113.243 E-0.22010
G1 X137.545 Y113.236 E-0.12305
G1 X136.509 Y112.200 E-0.33829
G1 X136.510 Y111.860 E-0.07856
;WIPE_END
G1 E-0.04000 F2100.000
G1 Z0.600 F10800.000
G1 X135.837 Y109.906
G1 Z0.200
G1 E0.80000 F2100.000
G1 F1200.000
G1 X133.861 Y107.930 E0.08877
G1 X133.320 Y107.930 E0.01717
G1 X135.127 Y109.736 E0.08115
G1 X134.586 Y109.736 E0.01717
G1 X132.780 Y107.930 E0.08115
G1 X132.240 Y107.930 E0.01717
G1 X134.046 Y109.736 E0.08115
G1 X133.506 Y109.736 E0.01717
G1 X131.699 Y107.930 E0.08115
G1 X131.159 Y107.930 E0.01717
G1 X133.119 Y109.890 E0.08805
G1 X133.119 Y110.431 E0.01717
G1 X130.619 Y107.930 E0.11234
G1 X130.078 Y107.930 E0.01717
G1 X133.119 Y110.971 E0.13663
G1 X133.120 Y111.512 E0.01717
G1 X129.538 Y107.930 E0.16092
G1 X128.998 Y107.930 E0.01717
G1 X133.120 Y112.052 E0.18521
G1 X133.120 Y112.593 E0.01717
G1 X128.457 Y107.930 E0.20949
G1 X127.917 Y107.930 E0.01717
G1 X133.120 Y113.134 E0.23378
G1 X133.121 Y113.674 E0.01717
G1 X127.377 Y107.930 E0.25807
G1 X127.002 Y107.948 E0.01191
G1 X126.883 Y107.976 E0.00391
G1 X133.121 Y114.215 E0.28028
G1 X133.121 Y114.755 E0.01717
G1 X126.524 Y108.158 E0.29643
G1 X126.425 Y108.242 E0.00412
G1 X126.270 Y108.445 E0.00811
G1 X133.122 Y115.296 E0.30781
G1 X133.122 Y115.837 E0.01717
G1 X126.129 Y108.844 E0.31419
G1 X126.113 Y109.368 E0.01669
G1 X133.122 Y116.377 E0.31489
G1 X133.122 Y116.918 E0.01717
G1 X126.113 Y109.909 E0.31490
G1 X126.113 Y110.449 E0.01717
G1 X133.123 Y117.458 E0.31491
G1 X133.123 Y117.999 E0.01717
G1 X126.113 Y110.989 E0.31492
G1 X126.113 Y111.530 E0.01717
G1 X133.293 Y118.709 E0.32256
;WIPE_START
G1 F8640.000
G1 X130.965 Y116.382 E-0.76000
;WIPE_END
G1 E-0.04000 F2100.000
G1 Z0.600 F10800.000
G1 X134.319 Y119.195
G1 Z0.200
G1 E0.80000 F2100.000
G1 F1200.000
G1 X134.777 Y119.653 E0.02058
G1 X134.775 Y120.192 E0.01711
G1 X133.809 Y119.226 E0.04340
;WIPE_START
G1 F8640.000
G1 X134.775 Y120.192 E-0.31541
G1 X134.777 Y119.653 E-0.12438
G1 X134.319 Y119.195 E-0.14960
;WIPE_END
G1 E-0.21062 F2100.000
G1 Z0.600 F10800.000
G1 X134.943 Y120.900
G1 Z0.200
G1 E0.80000 F2100.000
G1 F1200.000
G1 X133.460 Y119.417 E0.06661
G1 X133.123 Y119.437 E0.01072
G1 X133.123 Y119.080 E0.01136
G1 X126.113 Y112.070 E0.31495
G1 X126.113 Y112.610 E0.01717
G1 X134.772 Y121.269 E0.38902
G1 X134.770 Y121.808 E0.01711
G1 X126.113 Y113.151 E0.38895
G1 X126.113 Y113.691 E0.01717
G1 X134.938 Y122.516 E0.39647
;WIPE_START
G1 F8640.000
G1 X132.610 Y120.188 E-0.76000
;WIPE_END
G1 E-0.04000 F2100.000
G1 Z0.600 F10800.000
G1 X140.986 Y123.161
G1 Z0.200
G1 E0.80000 F2100.000
G1 F1200.000
G1 X141.220 Y123.394 E0.01049
G1 X141.220 Y123.934 E0.01716
G1 X140.615 Y123.330 E0.02714
G1 X140.075 Y123.330 E0.01717
G1 X141.218 Y124.473 E0.05134
G1 X141.189 Y124.984 E0.01628
G1 X139.535 Y123.330 E0.07432
G1 X138.994 Y123.330 E0.01717
G1 X141.155 Y125.491 E0.09707
G1 X141.076 Y125.953 E0.01488
G1 X138.473 Y123.349 E0.11697
G1 X137.744 Y123.161 F10800.000
G1 F1200.000
G1 X140.995 Y126.412 E0.14608
G1 X140.875 Y126.831 E0.01387
G1 X137.373 Y123.330 E0.15730
G1 X136.833 Y123.330 E0.01717
G1 X140.754 Y127.251 E0.17615
G1 X140.600 Y127.638 E0.01323
G1 X136.293 Y123.330 E0.19354
G1 X135.752 Y123.330 E0.01717
G1 X140.442 Y128.020 E0.21071
G1 X140.265 Y128.383 E0.01284
G1 X135.212 Y123.330 E0.22704
G1 X134.766 Y123.330 E0.01419
G1 X134.767 Y122.885 E0.01414
G1 X126.113 Y114.231 E0.38880
G1 X126.113 Y114.772 E0.01717
G1 X140.073 Y128.731 E0.62719
G1 X139.876 Y129.075 E0.01258
G1 X126.113 Y115.312 E0.61836
G1 X126.113 Y115.853 E0.01717
G1 X139.652 Y129.391 E0.60828
M73 Q1 S57
G1 X139.428 Y129.707 E0.01231
G1 X126.113 Y116.393 E0.59820
G1 X126.113 Y116.933 E0.01717
G1 X139.183 Y130.003 E0.58722
G1 X138.928 Y130.288 E0.01216
G1 X126.113 Y117.474 E0.57576
G1 X126.113 Y118.014 E0.01717
G1 X138.669 Y130.569 E0.56409
G1 X138.383 Y130.824 E0.01216
G1 X126.113 Y118.554 E0.55127
G1 X126.113 Y119.095 E0.01717
