; generated by PrusaSlicer 2.3.3+win64 on 2021-12-02 at 00:31:59 UTC

; 

; external perimeters extrusion width = 0.45mm
; perimeters extrusion width = 0.45mm
; infill extrusion width = 0.45mm
; solid infill extrusion width = 0.45mm
; top infill extrusion width = 0.40mm
; support material extrusion width = 0.35mm
; first layer extrusion width = 0.42mm

M73 P0 R71
M73 Q0 S71
M201 X1000 Y1000 Z200 E5000 ; sets maximum accelerations, mm/sec^2
M203 X200 Y200 Z12 E120 ; sets maximum feedrates, mm/sec
M204 P1250 R1250 T1250 ; sets acceleration (P, T) and retract acceleration (R), mm/sec^2
M205 X8.00 Y8.00 Z0.40 E4.50 ; sets the jerk limits, mm/sec
M205 S0 T0 ; sets the minimum extruding and travel feed rate, mm/sec
M107
;TYPE:Custom
M862.3 P "MK3S" ; printer model check
M862.1 P0.4 ; nozzle diameter check
M115 U3.10.0 ; tell printer latest fw version
G90 ; use absolute coordinates
M83 ; extruder relative mode
M104 S215 ; set extruder temp
M140 S60 ; set bed temp
M190 S60 ; wait for bed temp
M109 S215 ; wait for extruder temp
G28 W ; home all without mesh bed level
G80 ; mesh bed leveling
G1 Y-3.0 F1000.0 ; go outside print area
G92 E0.0
G1 X60.0 E9.0 F1000.0 ; intro line
G1 X100.0 E12.5 F1000.0 ; intro line
G92 E0.0
M221 S95

; Don't change E values below. Excessive value can damage the printer.
M907 E430 ; set extruder motor current
G21 ; set units to millimeters
G90 ; use absolute coordinates
M83 ; use relative distances for extrusion
M900 K0.05 ; Filament gcode LA 1.5
M900 K30 ; Filament gcode LA 1.0
;LAYER_CHANGE
;Z:0.2
;HEIGHT:0.2
;BEFORE_LAYER_CHANGE
G92 E0.0
;0.2


G1 E-0.80000 F2100.000
G1 Z0.400 F10800.000
;AFTER_LAYER_CHANGE
;0.2
G1 X110.671 Y88.719
G1 Z0.200
G1 E0.80000 F2100.000
M204 S1000
;TYPE:Skirt
;WIDTH:0.42
G1 F1200.000
G1 X111.446 Y88.575 E0.02473
G1 X142.407 Y88.574 E0.97077
G1 X143.281 Y88.741 E0.02790
G1 X144.036 Y89.220 E0.02802
G1 X144.560 Y89.943 E0.02802
G1 X144.780 Y90.809 E0.02802
G1 X145.559 Y109.940 E0.60033
G1 X145.562 Y113.710 E0.11819
G1 X145.464 Y114.317 E0.01929
G1 X145.213 Y114.887 E0.01951
G1 X144.714 Y115.611 E0.02759
G1 X144.063 Y116.245 E0.02847
G1 X136.103 Y121.905 E0.30626
G1 X135.609 Y122.158 E0.01740
G1 X135.067 Y122.291 E0.01752
G1 X103.795 Y122.308 E0.98049
G1 X103.290 Y122.241 E0.01597
G1 X102.808 Y122.065 E0.01609
G1 X102.378 Y121.793 E0.01597
G1 X102.013 Y121.432 E0.01609
G1 X101.631 Y120.768 E0.02402
G1 X101.481 Y120.017 E0.02402
G1 X101.479 Y109.139 E0.34108
G1 X101.548 Y108.584 E0.01752
G1 X104.696 Y97.219 E0.36977
G1 X106.688 Y92.333 E0.16542
G1 X107.208 Y91.579 E0.02872
G1 X109.985 Y89.108 E0.11655
G1 X110.619 Y88.748 E0.02285
; printing object MOHX-1-2001-21-B - LEFT TRIGGER.STL id:1 copy 0
;WIPE_START
G1 F8640.000
G1 X111.446 Y88.575 E-0.19524
G1 X113.892 Y88.575 E-0.56476
;WIPE_END
G1 E-0.04000 F2100.000
G1 Z0.600 F10800.000
G1 X106.962 Y106.386
G1 Z0.200
G1 E0.80000 F2100.000
;TYPE:Support material
G1 F1200.000
G1 X106.962 Y97.937 E0.26493
G1 X107.716 Y97.937 E0.02365
G1 X107.716 Y106.217 E0.25961
G1 X108.470 Y106.217 E0.02365
G1 X108.470 Y97.937 E0.25961
G1 X108.869 Y97.937 E0.01250
G1 X108.869 Y93.280 E0.14602
G1 X109.224 Y93.280 E0.01114
G1 X109.224 Y106.217 E0.40563
G1 X109.978 Y106.217 E0.02365
G1 X109.978 Y93.280 E0.40563
G1 X110.733 Y93.280 E0.02365
G1 X110.733 Y106.217 E0.40563
G1 X111.487 Y106.217 E0.02365
G1 X111.487 Y90.951 E0.47864
G1 X112.241 Y90.951 E0.02365
G1 X112.241 Y106.217 E0.47864
G1 X112.995 Y106.217 E0.02365
G1 X112.995 Y90.951 E0.47864
G1 X113.749 Y90.951 E0.02365
G1 X113.749 Y106.217 E0.47864
G1 X114.503 Y106.217 E0.02365
G1 X114.503 Y90.951 E0.47864
G1 X115.258 Y90.951 E0.02365
G1 X115.258 Y106.217 E0.47864
G1 X116.012 Y106.217 E0.02365
G1 X116.012 Y90.951 E0.47864
G1 X116.766 Y90.951 E0.02365
G1 X116.766 Y106.217 E0.47864
G1 X117.520 Y106.217 E0.02365
G1 X117.520 Y90.951 E0.47864
G1 X118.274 Y90.951 E0.02365
G1 X118.274 Y106.217 E0.47864
G1 X119.028 Y106.217 E0.02365
G1 X119.028 Y90.951 E0.47864
G1 X119.783 Y90.951 E0.02365
G1 X119.783 Y106.217 E0.47864
G1 X120.537 Y106.217 E0.02365
G1 X120.537 Y90.951 E0.47864
M73 P0 R70
G1 X121.291 Y90.951 E0.02365
G1 X121.291 Y106.217 E0.47864
G1 X122.045 Y106.217 E0.02365
G1 X122.045 Y90.951 E0.47864
G1 X122.799 Y90.951 E0.02365
G1 X122.799 Y106.217 E0.47864
G1 X123.553 Y106.217 E0.02365
G1 X123.553 Y90.951 E0.47864
G1 X124.308 Y90.951 E0.02365
G1 X124.308 Y103.888 E0.40563
G1 X125.062 Y103.888 E0.02365
G1 X125.062 Y90.951 E0.40563
G1 X125.816 Y90.951 E0.02365
G1 X125.816 Y103.888 E0.40563
G1 X126.570 Y103.888 E0.02365
G1 X126.570 Y90.951 E0.40563
G1 X127.324 Y90.951 E0.02365
G1 X127.324 Y103.888 E0.40563
G1 X128.078 Y103.888 E0.02365
G1 X128.078 Y90.951 E0.40563
G1 X128.832 Y90.951 E0.02365
G1 X128.832 Y103.888 E0.40563
G1 X129.587 Y103.888 E0.02365
G1 X129.587 Y90.951 E0.40563
G1 X130.341 Y90.951 E0.02365
G1 X130.341 Y103.888 E0.40563
G1 X131.095 Y103.888 E0.02365
G1 X131.095 Y90.951 E0.40563
G1 X131.849 Y90.951 E0.02365
G1 X131.849 Y103.888 E0.40563
G1 X132.603 Y103.888 E0.02365
G1 X132.603 Y90.951 E0.40563
G1 X133.357 Y90.951 E0.02365
G1 X133.357 Y103.888 E0.40563
G1 X134.112 Y103.888 E0.02365
G1 X134.112 Y90.951 E0.40563
G1 X134.866 Y90.951 E0.02365
G1 X134.866 Y96.101 E0.16145
G1 X134.746 Y96.244 E0.00586
G1 X134.660 Y96.404 E0.00571
G1 X134.558 Y96.722 E0.01047
G1 X134.543 Y97.002 E0.00878
G1 X134.566 Y98.719 E0.05383
M73 Q1 S71
G1 X134.647 Y99.079 E0.01156
G1 X134.866 Y99.447 E0.01343
G1 X134.866 Y103.888 E0.13926
M73 P1 R70
G1 X135.620 Y103.888 E0.02365
G1 X135.620 Y99.786 E0.12862
G1 X136.374 Y100.014 E0.02470
G1 X136.374 Y103.888 E0.12146
G1 X137.128 Y103.888 E0.02365
G1 X137.128 Y100.216 E0.11514
G1 X137.599 Y100.245 E0.01477
G1 X137.723 Y100.225 E0.00394
G1 X137.882 Y100.169 E0.00530
G1 X137.882 Y103.888 E0.11662
G1 X138.637 Y103.888 E0.02365
G1 X138.637 Y90.951 E0.40563
G1 X139.391 Y90.951 E0.02365
G1 X139.391 Y103.888 E0.40563
G1 X140.145 Y103.888 E0.02365
G1 X140.145 Y90.951 E0.40563
G1 X140.899 Y90.951 E0.02365
G1 X140.899 Y103.888 E0.40563
G1 X141.653 Y103.888 E0.02365
G1 X141.653 Y90.951 E0.40563
G1 X142.407 Y90.951 E0.02365
G1 X142.407 Y104.058 E0.41095
;WIPE_START
G1 F8640.000
G1 X142.407 Y100.766 E-0.76000
;WIPE_END
G1 E-0.04000 F2100.000
G1 Z0.600 F10800.000
G1 X137.882 Y95.719
G1 Z0.200
G1 E0.80000 F2100.000
G1 F1200.000
G1 X137.882 Y90.951 E0.14948
G1 X137.128 Y90.951 E0.02365
G1 X137.128 Y95.466 E0.14156
G1 X136.374 Y95.610 E0.02407
G1 X136.374 Y90.951 E0.14608
G1 X135.620 Y90.951 E0.02365
G1 X135.620 Y95.925 E0.15596
;WIPE_START
G1 F8640.000
G1 X135.620 Y92.634 E-0.76000
;WIPE_END
G1 E-0.04000 F2100.000
G1 Z0.600 F10800.000
G1 X136.127 Y97.262
G1 Z0.200
G1 E0.80000 F2100.000
;TYPE:Perimeter
G1 F1200.000
G1 X136.984 Y97.099 E0.02736
G1 X136.984 Y98.544 E0.04530
G1 X136.137 Y98.293 E0.02772
G1 X136.127 Y97.322 E0.03043
G1 X135.747 Y96.955 F10800.000
G1 F1200.000
G1 X137.361 Y96.648 E0.05153
G1 X137.361 Y99.035 E0.07484
G1 X136.553 Y98.819 E0.02624
G1 X135.762 Y98.570 E0.02598
G1 X135.747 Y97.014 E0.04878
G1 X135.435 Y96.701 F10800.000
;TYPE:External perimeter
G1 F1200.000
G1 X135.510 Y96.612 E0.00366
G1 X137.310 Y96.270 E0.05747
G1 X137.530 Y96.273 E0.00688
G1 X137.706 Y96.380 E0.00647
G1 X137.738 Y96.486 E0.00347
G1 X137.739 Y99.211 E0.08543
G1 X137.702 Y99.326 E0.00379
G1 X137.531 Y99.418 E0.00610
G1 X137.301 Y99.410 E0.00720
G1 X136.447 Y99.181 E0.02773
G1 X135.477 Y98.876 E0.03188
G1 X135.423 Y98.788 E0.00324
G1 X135.386 Y98.616 E0.00550
G1 X135.369 Y96.893 E0.05404
G1 X135.415 Y96.758 E0.00447
G1 X135.552 Y96.695 F10800.000
;WIPE_START
G1 F8640.000
G1 X135.510 Y96.612 E-0.04022
G1 X137.310 Y96.270 E-0.42323
G1 X137.530 Y96.273 E-0.05063
G1 X137.706 Y96.380 E-0.04764
G1 X137.738 Y96.486 E-0.02552
G1 X137.738 Y97.234 E-0.17276
;WIPE_END
G1 E-0.04000 F2100.000
G1 Z0.600 F10800.000
G1 X136.241 Y97.399
G1 Z0.200
G1 E0.80000 F2100.000
;TYPE:Solid infill
;WIDTH:0.436215
G1 F1200.000
G1 X136.871 Y98.029 E0.02913
; stop printing object MOHX-1-2001-21-B - LEFT TRIGGER.STL id:1 copy 0
; printing object MOHX-1-2002-21-B - LEFT BUMPER.STL id:0 copy 0
;WIPE_START
G1 F8640.000
G1 X136.241 Y97.399 E-0.20571
;WIPE_END
G1 E-0.59429 F2100.000
G1 Z0.600 F10800.000
G1 X131.760 Y109.273
G1 Z0.200
G1 E0.80000 F2100.000
;TYPE:Support material
;WIDTH:0.42
G1 F1200.000
G1 X131.760 Y106.825 E0.07676
G1 X131.006 Y106.825 E0.02365
G1 X131.006 Y108.953 E0.06670
M73 Q1 S70
G1 X130.252 Y108.813 E0.02405
G1 X130.252 Y106.825 E0.06232
G1 X129.498 Y106.825 E0.02365
G1 X129.486 Y111.776 E0.15524
G1 X128.744 Y111.777 E0.02327
G1 X128.744 Y106.825 E0.15524
G1 X127.989 Y106.825 E0.02365
G1 X127.989 Y111.946 E0.16057
G1 X127.615 Y111.982 F10800.000
;TYPE:Support material interface
;WIDTH:0.35
G1 F1200.000
G1 X127.615 Y116.787 E0.12269
G1 X128.144 Y116.787 E0.01350
G1 X128.144 Y112.129 E0.11891
G1 X128.673 Y112.129 E0.01350
G1 X128.673 Y116.787 E0.11891
G1 X129.201 Y116.787 E0.01350
G1 X129.201 Y114.539 E0.05740
G1 X129.551 Y114.763 E0.01060
G1 X129.730 Y114.681 E0.00503
G1 X129.730 Y116.787 E0.05377
G1 X130.258 Y116.787 E0.01350
G1 X130.258 Y114.434 E0.06008
G1 X130.787 Y114.186 E0.01490
G1 X130.787 Y116.787 E0.06640
G1 X131.315 Y116.787 E0.01350
G1 X131.315 Y113.947 E0.07251
G1 X131.844 Y113.713 E0.01476
G1 X131.844 Y116.934 E0.08226
;WIPE_START
G1 F8640.000
G1 X131.844 Y113.713 E-0.74388
G1 X131.780 Y113.741 E-0.01612
;WIPE_END
G1 E-0.04000 F2100.000
G1 Z0.600 F10800.000
G1 X134.777 Y119.932
G1 Z0.200
G1 E0.80000 F2100.000
;TYPE:Support material
;WIDTH:0.42
G1 F1200.000
G1 X134.777 Y112.809 E0.22335
G1 X134.741 Y112.806 E0.00113
G1 X134.023 Y112.820 E0.02252
G1 X134.023 Y119.762 E0.21768
G1 X133.268 Y119.762 E0.02365
G1 X133.268 Y112.940 E0.21390
G1 X132.514 Y113.164 E0.02466
G1 X132.514 Y119.762 E0.20689
G1 X131.760 Y119.762 E0.02365
G1 X131.760 Y117.139 E0.08224
G1 X131.006 Y117.139 E0.02365
G1 X131.006 Y119.762 E0.08224
G1 X130.252 Y119.762 E0.02365
G1 X130.252 Y117.139 E0.08224
G1 X129.498 Y117.139 E0.02365
G1 X129.498 Y119.762 E0.08224
G1 X128.744 Y119.762 E0.02365
G1 X128.744 Y117.139 E0.08223
G1 X127.989 Y117.139 E0.02365
G1 X127.989 Y119.762 E0.08223
G1 X127.235 Y119.762 E0.02365
G1 X127.235 Y117.139 E0.08223
G1 X126.948 Y117.139 E0.00899
G1 X126.948 Y111.777 E0.16815
G1 X127.235 Y111.777 E0.00899
G1 X127.235 Y104.497 E0.22826
G1 X126.481 Y104.497 E0.02365
G1 X126.481 Y119.762 E0.47864
G1 X125.727 Y119.762 E0.02365
G1 X125.727 Y104.497 E0.47864
G1 X124.973 Y104.497 E0.02365
G1 X124.973 Y119.762 E0.47864
G1 X124.219 Y119.762 E0.02365
G1 X124.219 Y104.497 E0.47864
G1 X123.464 Y104.497 E0.02365
G1 X123.464 Y119.762 E0.47864
G1 X122.710 Y119.762 E0.02365
G1 X122.710 Y104.497 E0.47864
G1 X121.956 Y104.497 E0.02365
G1 X121.956 Y119.762 E0.47864
G1 X121.202 Y119.762 E0.02365
G1 X121.202 Y104.497 E0.47864
G1 X120.448 Y104.497 E0.02365
G1 X120.448 Y119.762 E0.47864
G1 X119.694 Y119.762 E0.02365
G1 X119.694 Y104.497 E0.47864
G1 X118.939 Y104.497 E0.02365
G1 X118.939 Y119.762 E0.47864
G1 X118.185 Y119.762 E0.02365
G1 X118.185 Y104.497 E0.47864
G1 X117.431 Y104.497 E0.02365
G1 X117.431 Y119.762 E0.47864
G1 X116.677 Y119.762 E0.02365
G1 X116.677 Y104.497 E0.47864
G1 X115.923 Y104.497 E0.02365
G1 X115.923 Y119.762 E0.47864
G1 X115.169 Y119.762 E0.02365
G1 X115.169 Y104.497 E0.47864
G1 X114.415 Y104.497 E0.02365
G1 X114.415 Y119.762 E0.47864
G1 X113.660 Y119.762 E0.02365
G1 X113.660 Y104.497 E0.47864
G1 X112.906 Y104.497 E0.02365
G1 X112.906 Y119.762 E0.47864
G1 X112.152 Y119.762 E0.02365
G1 X112.152 Y106.825 E0.40563
G1 X111.398 Y106.825 E0.02365
G1 X111.398 Y119.762 E0.40563
G1 X110.644 Y119.762 E0.02365
G1 X110.644 Y106.825 E0.40563
G1 X110.354 Y106.825 E0.00907
G1 X110.354 Y109.154 E0.07301
G1 X109.890 Y109.154 E0.01457
G1 X109.890 Y119.762 E0.33262
G1 X109.135 Y119.762 E0.02365
G1 X109.135 Y109.154 E0.33262
G1 X108.381 Y109.154 E0.02365
G1 X108.381 Y119.762 E0.33262
G1 X107.627 Y119.762 E0.02365
G1 X107.627 Y109.154 E0.33262
G1 X106.873 Y109.154 E0.02365
G1 X106.873 Y119.762 E0.33262
G1 X106.119 Y119.762 E0.02365
G1 X106.119 Y109.154 E0.33262
G1 X105.365 Y109.154 E0.02365
G1 X105.365 Y119.762 E0.33262
G1 X104.610 Y119.762 E0.02365
G1 X104.610 Y109.154 E0.33262
G1 X103.856 Y109.154 E0.02365
G1 X103.856 Y119.932 E0.33794
;WIPE_START
G1 F8640.000
G1 X103.856 Y116.640 E-0.76000
;WIPE_END
G1 E-0.04000 F2100.000
G1 Z0.600 F10800.000
G1 X131.054 Y112.042
G1 Z0.200
G1 E0.80000 F2100.000
;TYPE:Perimeter
G1 F1200.000
G1 X131.060 Y110.576 E0.04595
G1 X131.919 Y110.745 E0.02745
G1 X134.006 Y111.250 E0.06733
G1 X133.478 Y111.293 E0.01662
G1 X132.734 Y111.444 E0.02379
G1 X132.255 Y111.583 E0.01563
G1 X131.735 Y111.765 E0.01728
G1 X131.108 Y112.017 E0.02118
;WIPE_START
G1 F8640.000
G1 X131.060 Y110.576 E-0.33284
G1 X131.919 Y110.745 E-0.20215
G1 X132.866 Y110.974 E-0.22500
;WIPE_END
G1 E-0.04000 F2100.000
G1 Z0.600 F10800.000
G1 X137.230 Y111.620
G1 Z0.200
G1 E0.80000 F2100.000
G1 F1200.000
G1 X138.143 Y111.549 E0.02872
G1 X139.181 Y111.384 E0.03295
G1 X139.947 Y111.221 E0.02454
G1 X140.912 Y110.979 E0.03119
G1 X141.690 Y110.749 E0.02547
G1 X141.690 Y112.806 E0.06451
G1 X138.478 Y111.936 E0.10436
G1 X137.289 Y111.633 E0.03846
;WIPE_START
G1 F8640.000
G1 X138.143 Y111.549 E-0.19825
G1 X139.181 Y111.384 E-0.24265
G1 X139.947 Y111.221 E-0.18072
G1 X140.528 Y111.075 E-0.13838
;WIPE_END
G1 E-0.04000 F2100.000
G1 Z0.600 F10800.000
G1 X142.067 Y113.299
G1 Z0.200
G1 E0.80000 F2100.000
G1 F1200.000
G1 X138.382 Y112.301 E0.11973
G1 X137.204 Y112.000 E0.03812
G1 X136.137 Y111.770 E0.03421
G1 X135.625 Y111.686 E0.01627
G1 X134.798 Y111.606 E0.02605
G1 X134.351 Y111.600 E0.01403
G1 X133.531 Y111.667 E0.02579
G1 X132.825 Y111.811 E0.02261
G1 X132.370 Y111.942 E0.01483
M73 Q2 S70
G1 X131.868 Y112.118 E0.01669
M73 P2 R70
G1 X131.257 Y112.364 E0.02066
G1 X130.649 Y112.641 E0.02094
G1 X130.675 Y112.409 E0.00731
G1 X130.685 Y110.118 E0.07184
G1 X132.000 Y110.377 E0.04202
G1 X133.988 Y110.860 E0.06415
G1 X135.125 Y111.105 E0.03645
G1 X135.860 Y111.208 E0.02329
G1 X136.399 Y111.247 E0.01693
G1 X136.943 Y111.255 E0.01707
G1 X137.504 Y111.231 E0.01760
G1 X138.096 Y111.175 E0.01864
G1 X139.112 Y111.013 E0.03227
G1 X139.862 Y110.854 E0.02402
G1 X140.812 Y110.615 E0.03073
G1 X142.068 Y110.244 E0.04105
G1 X142.067 Y113.239 E0.09391
G1 X142.445 Y113.792 F10800.000
;TYPE:External perimeter
G1 F1200.000
G1 X138.286 Y112.666 E0.13509
G1 X137.117 Y112.368 E0.03782
G1 X136.067 Y112.140 E0.03369
G1 X135.576 Y112.060 E0.01558
G1 X134.777 Y111.983 E0.02517
G1 X134.363 Y111.977 E0.01299
G1 X133.584 Y112.041 E0.02451
G1 X132.915 Y112.177 E0.02142
G1 X132.485 Y112.302 E0.01403
G1 X132.000 Y112.471 E0.01609
G1 X131.405 Y112.710 E0.02011
G1 X130.136 Y113.289 E0.04376
G1 X130.239 Y112.908 E0.01241
G1 X130.298 Y112.387 E0.01642
G1 X130.310 Y109.661 E0.08548
G1 X132.081 Y110.008 E0.05659
G1 X134.072 Y110.492 E0.06426
G1 X135.190 Y110.733 E0.03586
G1 X135.900 Y110.832 E0.02246
G1 X136.415 Y110.870 E0.01620
G1 X136.938 Y110.878 E0.01639
G1 X137.478 Y110.855 E0.01695
G1 X138.048 Y110.801 E0.01796
G1 X139.044 Y110.643 E0.03160
G1 X139.776 Y110.487 E0.02349
G1 X140.713 Y110.251 E0.03027
G1 X142.281 Y109.788 E0.05127
G1 X142.338 Y109.786 E0.00179
G1 X142.396 Y109.836 E0.00242
G1 X142.422 Y109.887 E0.00177
G1 X142.445 Y110.044 E0.00500
G1 X142.445 Y113.732 E0.11561
G1 X142.138 Y113.535 F10800.000
;WIPE_START
G1 F8640.000
G1 X139.256 Y112.914 E-0.76000
;WIPE_END
G1 E-0.04000 F2100.000
G1 Z0.600 F10800.000
G1 X141.577 Y111.755
G1 Z0.200
G1 E0.80000 F2100.000
;TYPE:Solid infill
;WIDTH:0.466829
G1 F1200.000
G1 X141.054 Y111.232 E0.02609
G1 X140.577 Y111.355 E0.01735
G1 X141.408 Y112.185 E0.04140
G1 X141.408 Y112.437 E0.00887
G1 X140.931 Y112.307 E0.01742
G1 X140.098 Y111.475 E0.04150
G1 X139.607 Y111.583 E0.01774
G1 X140.350 Y112.326 E0.03704
;WIPE_START
G1 F8640.000
G1 X139.607 Y111.583 E-0.24264
G1 X140.098 Y111.475 E-0.11620
G1 X140.931 Y112.307 E-0.27186
M73 P2 R69
G1 X141.408 Y112.437 E-0.11412
G1 X141.408 Y112.371 E-0.01518
;WIPE_END
G1 E-0.04000 F2100.000
G1 Z0.600 F10800.000
G1 X139.063 Y111.743
G1 Z0.200
G1 E0.80000 F2100.000
;TYPE:Gap fill
