; generated by PrusaSlicer 2.3.3+win64 on 2021-12-02 at 07:13:39 UTC

; 

; external perimeters extrusion width = 0.45mm
; perimeters extrusion width = 0.45mm
; infill extrusion width = 0.45mm
; solid infill extrusion width = 0.45mm
; top infill extrusion width = 0.40mm
; support material extrusion width = 0.35mm
; first layer extrusion width = 0.42mm

M73 P0 R80
M73 Q0 S80
M201 X1000 Y1000 Z200 E5000 ; sets maximum accelerations, mm/sec^2
M203 X200 Y200 Z12 E120 ; sets maximum feedrates, mm/sec
M204 P1250 R1250 T1250 ; sets acceleration (P, T) and retract acceleration (R), mm/sec^2
M205 X8.00 Y8.00 Z0.40 E4.50 ; sets the jerk limits, mm/sec
M205 S0 T0 ; sets the minimum extruding and travel feed rate, mm/sec
M107
;TYPE:Custom
M862.3 P "MK3S" ; printer model check
M862.1 P0.4 ; nozzle diameter check
M115 U3.10.0 ; tell printer latest fw version
G90 ; use absolute coordinates
M83 ; extruder relative mode
M104 S215 ; set extruder temp
M140 S60 ; set bed temp
M190 S60 ; wait for bed temp
M109 S215 ; wait for extruder temp
G28 W ; home all without mesh bed level
G80 ; mesh bed leveling
G1 Y-3.0 F1000.0 ; go outside print area
G92 E0.0
G1 X60.0 E9.0 F1000.0 ; intro line
G1 X100.0 E12.5 F1000.0 ; intro line
G92 E0.0
M221 S95

; Don't change E values below. Excessive value can damage the printer.
M907 E430 ; set extruder motor current
G21 ; set units to millimeters
G90 ; use absolute coordinates
M83 ; use relative distances for extrusion
M900 K0.05 ; Filament gcode LA 1.5
M900 K30 ; Filament gcode LA 1.0
;LAYER_CHANGE
;Z:0.2
;HEIGHT:0.2
;BEFORE_LAYER_CHANGE
G92 E0.0
;0.2


G1 E-0.80000 F2100.000
G1 Z0.400 F10800.000
;AFTER_LAYER_CHANGE
;0.2
G1 X108.687 Y58.830
G1 Z0.200
G1 E0.80000 F2100.000
M204 S1000
;TYPE:Skirt
;WIDTH:0.42
G1 F1200.000
G1 X109.219 Y58.258 E0.02449
G1 X109.907 Y57.888 E0.02449
G1 X110.674 Y57.762 E0.02437
G1 X139.484 Y57.937 E0.90333
G1 X140.216 Y58.104 E0.02355
G1 X140.863 Y58.493 E0.02367
G1 X141.353 Y59.062 E0.02355
G1 X141.642 Y59.760 E0.02367
G1 X149.613 Y97.293 E1.20310
G1 X149.624 Y119.418 E0.69370
G1 X149.403 Y120.218 E0.02602
G1 X134.663 Y150.933 E1.06821
G1 X134.383 Y151.364 E0.01609
G1 X134.015 Y151.726 E0.01621
G1 X133.576 Y152.001 E0.01621
G1 X133.089 Y152.174 E0.01621
G1 X132.527 Y152.238 E0.01775
G1 X117.348 Y152.065 E0.47595
G1 X116.503 Y151.868 E0.02720
G1 X115.783 Y151.377 E0.02731
G1 X115.320 Y150.730 E0.02496
G1 X100.601 Y120.227 E1.06192
G1 X100.431 Y119.747 E0.01597
G1 X100.366 Y119.200 E0.01728
G1 X100.398 Y97.221 E0.68914
G1 X108.371 Y59.540 E1.20761
G1 X108.663 Y58.885 E0.02249
; printing object RT-2001-21-A - REC C LIVING HINGE.STL id:0 copy 0
;WIPE_START
G1 F8640.000
G1 X109.219 Y58.258 E-0.19352
G1 X109.907 Y57.888 E-0.18036
G1 X110.674 Y57.762 E-0.17949
G1 X111.569 Y57.768 E-0.20663
;WIPE_END
G1 E-0.04000 F2100.000
G1 Z0.600 F10800.000
G1 X110.671 Y60.139
G1 Z0.200
G1 E0.80000 F2100.000
;TYPE:Support material
G1 F1200.000
G1 X110.671 Y97.194 E1.16182
G1 X111.425 Y97.194 E0.02365
G1 X111.425 Y60.309 E1.15650
G1 X112.179 Y60.309 E0.02365
G1 X112.179 Y97.194 E1.15650
G1 X112.933 Y97.194 E0.02365
G1 X112.933 Y60.309 E1.15650
G1 X113.688 Y60.309 E0.02365
G1 X113.688 Y97.364 E1.16182
;WIPE_START
G1 F8640.000
G1 X113.688 Y94.072 E-0.76000
;WIPE_END
G1 E-0.04000 F2100.000
G1 Z0.600 F10800.000
G1 X134.804 Y90.585
G1 Z0.200
G1 E0.80000 F2100.000
G1 F1200.000
G1 X134.804 Y60.309 E0.94928
G1 X134.050 Y60.309 E0.02365
G1 X134.050 Y90.415 E0.94396
G1 X133.296 Y90.415 E0.02365
G1 X133.296 Y60.309 E0.94396
G1 X132.542 Y60.309 E0.02365
G1 X132.542 Y90.415 E0.94396
G1 X131.787 Y90.415 E0.02365
G1 X131.787 Y60.309 E0.94396
G1 X131.033 Y60.309 E0.02365
G1 X131.033 Y90.415 E0.94396
M73 P0 R79
G1 X130.279 Y90.415 E0.02365
G1 X130.279 Y60.309 E0.94396
G1 X129.525 Y60.309 E0.02365
G1 X129.525 Y90.415 E0.94396
G1 X128.983 Y90.415 E0.01699
G1 X128.983 Y70.885 E0.61235
G1 X128.771 Y70.885 E0.00666
G1 X128.771 Y60.309 E0.33161
G1 X128.017 Y60.309 E0.02365
G1 X128.017 Y70.885 E0.33161
G1 X127.262 Y70.885 E0.02365
G1 X127.262 Y60.309 E0.33161
G1 X126.508 Y60.309 E0.02365
G1 X126.508 Y70.885 E0.33161
G1 X125.754 Y70.885 E0.02365
G1 X125.754 Y60.309 E0.33161
G1 X125.000 Y60.309 E0.02365
G1 X125.000 Y70.885 E0.33161
G1 X124.246 Y70.885 E0.02365
G1 X124.246 Y60.309 E0.33161
G1 X123.492 Y60.309 E0.02365
G1 X123.492 Y70.885 E0.33161
G1 X122.738 Y70.885 E0.02365
G1 X122.738 Y60.309 E0.33161
M73 P1 R79
M73 Q1 S80
G1 X121.983 Y60.309 E0.02365
G1 X121.983 Y70.885 E0.33161
G1 X121.229 Y70.885 E0.02365
G1 X121.229 Y60.309 E0.33161
G1 X120.475 Y60.309 E0.02365
G1 X120.475 Y90.415 E0.94396
G1 X119.721 Y90.415 E0.02365
G1 X119.721 Y60.309 E0.94396
G1 X118.967 Y60.309 E0.02365
G1 X118.967 Y90.415 E0.94396
G1 X118.213 Y90.415 E0.02365
G1 X118.213 Y60.309 E0.94396
G1 X117.458 Y60.309 E0.02365
G1 X117.458 Y90.415 E0.94396
G1 X116.704 Y90.415 E0.02365
G1 X116.704 Y60.309 E0.94396
G1 X115.950 Y60.309 E0.02365
G1 X115.950 Y90.415 E0.94396
M73 Q1 S79
G1 X115.196 Y90.415 E0.02365
G1 X115.196 Y60.309 E0.94396
G1 X114.442 Y60.309 E0.02365
G1 X114.442 Y97.194 E1.15650
G1 X115.196 Y97.194 E0.02365
G1 X115.196 Y92.739 E0.13970
G1 X115.950 Y92.739 E0.02365
G1 X115.950 Y95.410 E0.08375
G1 X116.704 Y95.410 E0.02365
G1 X116.704 Y92.739 E0.08375
G1 X117.458 Y92.739 E0.02365
G1 X117.458 Y95.410 E0.08375
G1 X118.213 Y95.410 E0.02365
G1 X118.213 Y92.739 E0.08375
G1 X118.967 Y92.739 E0.02365
G1 X118.967 Y95.410 E0.08375
G1 X119.721 Y95.410 E0.02365
G1 X119.721 Y92.739 E0.08375
G1 X120.475 Y92.739 E0.02365
G1 X120.475 Y95.410 E0.08375
G1 X121.229 Y95.410 E0.02365
G1 X121.229 Y92.739 E0.08375
G1 X121.983 Y92.739 E0.02365
G1 X121.983 Y95.410 E0.08375
G1 X122.738 Y95.410 E0.02365
G1 X122.738 Y92.569 E0.08907
;WIPE_START
G1 F8640.000
G1 X122.738 Y95.410 E-0.65593
G1 X122.287 Y95.410 E-0.10407
;WIPE_END
G1 E-0.04000 F2100.000
G1 Z0.600 F10800.000
G1 X127.262 Y92.569
G1 Z0.200
G1 E0.80000 F2100.000
G1 F1200.000
G1 X127.262 Y95.410 E0.08907
G1 X128.017 Y95.410 E0.02365
G1 X128.017 Y92.739 E0.08375
G1 X128.771 Y92.739 E0.02365
G1 X128.771 Y95.410 E0.08375
G1 X129.525 Y95.410 E0.02365
G1 X129.525 Y92.739 E0.08375
G1 X130.279 Y92.739 E0.02365
G1 X130.279 Y95.410 E0.08375
G1 X131.033 Y95.410 E0.02365
G1 X131.033 Y92.739 E0.08375
G1 X131.787 Y92.739 E0.02365
G1 X131.787 Y95.410 E0.08375
G1 X132.542 Y95.410 E0.02365
G1 X132.542 Y92.739 E0.08375
G1 X133.296 Y92.739 E0.02365
G1 X133.296 Y95.410 E0.08375
G1 X134.050 Y95.410 E0.02365
G1 X134.050 Y92.739 E0.08375
G1 X134.804 Y92.739 E0.02365
G1 X134.804 Y97.194 E0.13970
G1 X135.558 Y97.194 E0.02365
G1 X135.558 Y60.309 E1.15650
G1 X136.312 Y60.309 E0.02365
G1 X136.312 Y97.194 E1.15650
G1 X137.067 Y97.194 E0.02365
G1 X137.067 Y60.309 E1.15650
G1 X137.821 Y60.309 E0.02365
G1 X137.821 Y97.194 E1.15650
G1 X138.575 Y97.194 E0.02365
G1 X138.575 Y60.309 E1.15650
G1 X139.329 Y60.309 E0.02365
G1 X139.329 Y97.364 E1.16182
;WIPE_START
G1 F8640.000
G1 X139.329 Y94.072 E-0.76000
;WIPE_END
G1 E-0.04000 F2100.000
G1 Z0.600 F10800.000
G1 X127.071 Y146.864
G1 Z0.200
G1 E0.80000 F2100.000
;TYPE:Support material interface
;WIDTH:0.35
G1 F1200.000
G1 X127.071 Y119.581 E0.69662
G1 X126.553 Y119.581 E0.01322
G1 X126.553 Y146.721 E0.69296
G1 X126.036 Y146.721 E0.01322
G1 X126.036 Y119.581 E0.69296
G1 X125.518 Y119.581 E0.01322
G1 X125.518 Y146.721 E0.69296
G1 X125.000 Y146.721 E0.01322
G1 X125.000 Y119.581 E0.69296
G1 X124.482 Y119.581 E0.01322
G1 X124.482 Y146.721 E0.69296
G1 X123.964 Y146.721 E0.01322
G1 X123.964 Y119.581 E0.69296
G1 X123.447 Y119.581 E0.01322
G1 X123.447 Y146.721 E0.69296
G1 X122.929 Y146.721 E0.01322
G1 X122.929 Y119.438 E0.69662
G1 X117.458 Y119.441 F10800.000
;TYPE:Support material
;WIDTH:0.42
G1 F1200.000
G1 X117.458 Y149.691 E0.94845
G1 X118.213 Y149.691 E0.02365
G1 X118.213 Y119.611 E0.94313
M73 P2 R79
M73 Q2 S79
G1 X118.967 Y119.611 E0.02365
G1 X118.967 Y149.691 E0.94313
G1 X119.721 Y149.691 E0.02365
G1 X119.721 Y119.611 E0.94313
M73 P2 R78
G1 X120.475 Y119.611 E0.02365
G1 X120.475 Y149.691 E0.94313
G1 X121.229 Y149.691 E0.02365
G1 X121.229 Y119.611 E0.94313
G1 X121.983 Y119.611 E0.02365
G1 X121.983 Y149.691 E0.94313
G1 X122.738 Y149.691 E0.02365
G1 X122.738 Y147.068 E0.08224
G1 X123.492 Y147.068 E0.02365
G1 X123.492 Y149.691 E0.08224
G1 X124.246 Y149.691 E0.02365
G1 X124.246 Y147.068 E0.08224
G1 X125.000 Y147.068 E0.02365
G1 X125.000 Y149.691 E0.08224
G1 X125.754 Y149.691 E0.02365
G1 X125.754 Y147.068 E0.08224
G1 X126.508 Y147.068 E0.02365
G1 X126.508 Y149.691 E0.08224
G1 X127.262 Y149.691 E0.02365
G1 X127.262 Y147.068 E0.08224
G1 X127.665 Y147.068 E0.01263
G1 X127.665 Y119.611 E0.86089
G1 X128.017 Y119.611 E0.01102
G1 X128.017 Y149.691 E0.94313
G1 X128.771 Y149.691 E0.02365
G1 X128.771 Y119.611 E0.94313
G1 X129.525 Y119.611 E0.02365
G1 X129.525 Y149.691 E0.94313
G1 X130.279 Y149.691 E0.02365
G1 X130.279 Y119.611 E0.94313
G1 X131.033 Y119.611 E0.02365
G1 X131.033 Y149.691 E0.94313
G1 X131.787 Y149.691 E0.02365
G1 X131.787 Y119.611 E0.94313
G1 X132.542 Y119.611 E0.02365
G1 X132.542 Y149.861 E0.94845
;WIPE_START
G1 F8640.000
G1 X132.542 Y146.569 E-0.76000
;WIPE_END
G1 E-0.04000 F2100.000
G1 Z0.600 F10800.000
G1 X133.103 Y98.395
G1 Z0.200
G1 E0.80000 F2100.000
;TYPE:Perimeter
G1 F1200.000
G1 X146.470 Y98.395 E0.41911
M73 Q2 S78
G1 X146.470 Y118.410 E0.62758
G1 X103.530 Y118.410 E1.34633
G1 X103.530 Y98.395 E0.62758
G1 X116.897 Y98.395 E0.41911
G1 X116.897 Y96.610 E0.05595
G1 X133.103 Y96.610 E0.50812
G1 X133.103 Y98.335 E0.05407
G1 X133.480 Y98.018 F10800.000
;TYPE:External perimeter
G1 F1200.000
G1 X146.847 Y98.018 E0.41911
G1 X146.847 Y118.788 E0.65123
G1 X103.153 Y118.788 E1.36998
G1 X103.153 Y98.018 E0.65123
G1 X116.520 Y98.018 E0.41911
G1 X116.520 Y96.233 E0.05595
G1 X133.480 Y96.233 E0.53177
G1 X133.480 Y97.958 E0.05407
G1 X133.668 Y98.371 F10800.000
G1 X132.820 Y98.187
;TYPE:Solid infill
G1 F1200.000
G1 X132.339 Y97.674 E0.02204
G1 X131.882 Y97.248 E0.01960
G1 X131.452 Y96.893 E0.01748
G1 X132.046 Y96.893 F10800.000
G1 F1200.000
G1 X132.550 Y97.352 E0.02137
G1 X132.820 Y97.632 E0.01220
G1 X132.820 Y97.090 F10800.000
G1 F1200.000
G1 X132.607 Y96.893 E0.00909
;WIPE_START
G1 F8640.000
G1 X132.820 Y97.090 E-0.06692
;WIPE_END
G1 E-0.73308 F2100.000
G1 Z0.600 F10800.000
G1 X133.226 Y98.677
G1 Z0.200
G1 E0.80000 F2100.000
G1 F1200.000
G1 X133.546 Y99.108 E0.01682
G1 X133.889 Y99.631 E0.01962
G1 X134.199 Y100.175 E0.01962
G1 X134.476 Y100.736 E0.01962
G1 X134.719 Y101.313 E0.01963
G1 X134.927 Y101.904 E0.01963
G1 X135.099 Y102.506 E0.01964
G1 X135.234 Y103.117 E0.01964
G1 X135.332 Y103.736 E0.01964
G1 X135.393 Y104.360 E0.01965
G1 X135.417 Y104.986 E0.01965
G1 X135.402 Y105.612 E0.01965
G1 X135.350 Y106.237 E0.01966
G1 X135.261 Y106.858 E0.01966
G1 X135.134 Y107.472 E0.01966
G1 X134.971 Y108.078 E0.01967
G1 X134.771 Y108.672 E0.01967
G1 X134.536 Y109.254 E0.01967
G1 X134.267 Y109.821 E0.01968
G1 X133.964 Y110.370 E0.01968
G1 X133.628 Y110.901 E0.01968
G1 X133.261 Y111.410 E0.01969
G1 X132.864 Y111.897 E0.01969
G1 X132.439 Y112.359 E0.01969
G1 X131.986 Y112.795 E0.01970
G1 X131.508 Y113.203 E0.01970
G1 X131.007 Y113.581 E0.01970
G1 X130.483 Y113.929 E0.01971
G1 X129.940 Y114.245 E0.01971
G1 X129.378 Y114.528 E0.01971
G1 X128.800 Y114.776 E0.01972
G1 X128.209 Y114.990 E0.01972
G1 X127.605 Y115.168 E0.01972
G1 X126.992 Y115.309 E0.01973
G1 X126.372 Y115.413 E0.01973
G1 X125.746 Y115.480 E0.01973
G1 X125.117 Y115.510 E0.01974
G1 X124.488 Y115.502 E0.01974
G1 X123.860 Y115.456 E0.01974
G1 X123.235 Y115.372 E0.01975
G1 X122.617 Y115.251 E0.01975
G1 X122.007 Y115.094 E0.01975
G1 X121.407 Y114.900 E0.01976
G1 X120.820 Y114.671 E0.01976
G1 X120.248 Y114.407 E0.01976
G1 X119.692 Y114.109 E0.01977
G1 X119.155 Y113.779 E0.01977
G1 X118.639 Y113.417 E0.01977
G1 X118.145 Y113.024 E0.01978
G1 X117.676 Y112.603 E0.01978
G1 X117.232 Y112.154 E0.01978
G1 X116.816 Y111.680 E0.01979
G1 X116.429 Y111.181 E0.01979
G1 X116.072 Y110.661 E0.01979
G1 X115.747 Y110.119 E0.01980
G1 X115.454 Y109.559 E0.01980
G1 X115.196 Y108.983 E0.01980
G1 X114.972 Y108.392 E0.01981
G1 X114.785 Y107.789 E0.01981
G1 X114.633 Y107.175 E0.01981
G1 X114.518 Y106.554 E0.01982
G1 X114.440 Y105.927 E0.01982
G1 X114.400 Y105.296 E0.01982
G1 X114.398 Y104.663 E0.01983
G1 X114.433 Y104.032 E0.01983
G1 X114.506 Y103.403 E0.01983
G1 X114.617 Y102.780 E0.01984
G1 X114.764 Y102.165 E0.01984
G1 X114.947 Y101.559 E0.01984
G1 X115.167 Y100.965 E0.01985
G1 X115.421 Y100.386 E0.01985
G1 X115.710 Y99.822 E0.01985
G1 X116.031 Y99.276 E0.01986
G1 X116.441 Y98.677 E0.02275
G1 X115.979 Y98.677 F10800.000
G1 F1200.000
G1 X115.559 Y99.326 E0.02421
G1 X115.247 Y99.889 E0.02021
G1 X114.968 Y100.470 E0.02020
G1 X114.723 Y101.066 E0.02020
G1 X114.514 Y101.675 E0.02020
G1 X114.340 Y102.295 E0.02019
G1 X114.204 Y102.924 E0.02019
G1 X114.104 Y103.561 E0.02019
G1 X114.042 Y104.201 E0.02018
G1 X114.018 Y104.844 E0.02018
G1 X114.031 Y105.488 E0.02018
G1 X114.082 Y106.129 E0.02017
G1 X114.170 Y106.766 E0.02017
G1 X114.296 Y107.397 E0.02017
G1 X114.458 Y108.019 E0.02016
G1 X114.657 Y108.631 E0.02016
G1 X114.891 Y109.230 E0.02016
G1 X115.159 Y109.814 E0.02015
G1 X115.461 Y110.381 E0.02015
G1 X115.796 Y110.929 E0.02015
G1 X116.163 Y111.457 E0.02014
G1 X116.560 Y111.962 E0.02014
G1 X116.985 Y112.443 E0.02014
G1 X117.439 Y112.898 E0.02013
G1 X117.917 Y113.325 E0.02013
G1 X118.421 Y113.724 E0.02013
G1 X118.946 Y114.092 E0.02012
G1 X119.492 Y114.429 E0.02012
G1 X120.057 Y114.733 E0.02012
G1 X120.639 Y115.004 E0.02011
G1 X121.236 Y115.239 E0.02011
G1 X121.845 Y115.439 E0.02011
G1 X122.465 Y115.603 E0.02010
G1 X123.093 Y115.731 E0.02010
G1 X123.728 Y115.821 E0.02010
G1 X124.367 Y115.873 E0.02010
G1 X125.007 Y115.888 E0.02009
G1 X125.648 Y115.865 E0.02009
G1 X126.285 Y115.805 E0.02009
G1 X126.918 Y115.707 E0.02008
G1 X127.544 Y115.572 E0.02008
G1 X128.161 Y115.401 E0.02008
G1 X128.767 Y115.193 E0.02007
G1 X129.359 Y114.950 E0.02007
G1 X129.936 Y114.673 E0.02007
G1 X130.495 Y114.363 E0.02006
G1 X131.036 Y114.020 E0.02006
G1 X131.554 Y113.646 E0.02006
G1 X132.050 Y113.242 E0.02005
G1 X132.521 Y112.809 E0.02005
G1 X132.966 Y112.350 E0.02005
G1 X133.383 Y111.865 E0.02004
G1 X133.770 Y111.357 E0.02004
G1 X134.127 Y110.827 E0.02004
G1 X134.451 Y110.276 E0.02003
G1 X134.743 Y109.708 E0.02003
G1 X135.001 Y109.123 E0.02003
G1 X135.223 Y108.525 E0.02002
G1 X135.410 Y107.914 E0.02002
G1 X135.560 Y107.294 E0.02002
G1 X135.674 Y106.666 E0.02001
G1 X135.750 Y106.032 E0.02001
G1 X135.789 Y105.395 E0.02001
G1 X135.790 Y104.757 E0.02000
G1 X135.753 Y104.120 E0.02000
G1 X135.679 Y103.487 E0.02000
G1 X135.567 Y102.859 E0.01999
G1 X135.419 Y102.239 E0.01999
G1 X135.234 Y101.629 E0.01999
G1 X135.013 Y101.031 E0.01998
G1 X134.758 Y100.447 E0.01998
G1 X134.468 Y99.880 E0.01998
G1 X134.146 Y99.330 E0.01997
G1 X133.697 Y98.677 E0.02483
G1 X134.162 Y98.677 F10800.000
G1 F1200.000
G1 X134.448 Y99.103 E0.01608
G1 X134.778 Y99.661 E0.02032
G1 X135.075 Y100.237 E0.02032
G1 X135.338 Y100.829 E0.02033
G1 X135.567 Y101.436 E0.02033
G1 X135.759 Y102.055 E0.02033
G1 X135.916 Y102.685 E0.02034
G1 X136.035 Y103.322 E0.02034
G1 X136.117 Y103.966 E0.02034
G1 X136.162 Y104.613 E0.02035
G1 X136.169 Y105.262 E0.02035
G1 X136.139 Y105.911 E0.02035
G1 X136.070 Y106.556 E0.02036
G1 X135.965 Y107.197 E0.02036
G1 X135.822 Y107.830 E0.02036
G1 X135.643 Y108.455 E0.02037
G1 X135.428 Y109.068 E0.02037
G1 X135.178 Y109.667 E0.02037
G1 X134.893 Y110.251 E0.02037
G1 X134.575 Y110.818 E0.02038
G1 X134.224 Y111.365 E0.02038
G1 X133.842 Y111.892 E0.02038
G1 X133.431 Y112.395 E0.02039
G1 X132.990 Y112.873 E0.02039
G1 X132.523 Y113.326 E0.02039
G1 X132.030 Y113.750 E0.02040
G1 X131.513 Y114.146 E0.02040
G1 X130.975 Y114.511 E0.02040
G1 X130.415 Y114.844 E0.02041
G1 X129.838 Y115.144 E0.02041
G1 X129.244 Y115.410 E0.02041
G1 X128.635 Y115.642 E0.02042
G1 X128.014 Y115.838 E0.02042
G1 X127.383 Y115.997 E0.02042
G1 X126.743 Y116.120 E0.02043
G1 X126.097 Y116.206 E0.02043
G1 X125.447 Y116.254 E0.02043
G1 X124.796 Y116.264 E0.02043
G1 X124.144 Y116.237 E0.02044
G1 X123.496 Y116.172 E0.02044
G1 X122.852 Y116.070 E0.02044
